;FLAVOR:UltiGCode
;TIME:7722
;MATERIAL:13928
;MATERIAL2:0
;NOZZLE_DIAMETER:0.4
;MINX:64.357
;MINY:66.882
;MINZ:0.27
;MAXX:158.643
;MAXY:147.118
;MAXZ:8.97
;Generated with Cura_SteamEngine 4.5.0
M82 ;absolute extrusion mode

G92 E0
G92 E0
G10
;LAYER_COUNT:59
;LAYER:0
M107
G0 F4500 X67.299 Y69.636 Z0.27
;TYPE:SKIRT
G11
G1 F1800 X67.891 Y69.108 E0.07496
G1 X68.374 Y68.748 E0.13189
G1 X68.789 Y68.463 E0.17946
G1 X69.465 Y68.048 E0.25442
G1 X70.179 Y67.702 E0.3294
G1 X70.706 Y67.501 E0.3827
G1 X71.187 Y67.337 E0.43073
G1 X71.95 Y67.119 E0.50572
G1 X72.985 Y66.951 E0.6048
G1 X74.076 Y66.883 E0.7081
G1 X133.955 Y66.883 E6.36667
G1 X148.923 Y66.882 E7.78114
G1 X150.028 Y66.96 E7.88583
G1 X150.536 Y67.032 E7.93431
G1 X151.315 Y67.183 E8.0093
G1 X152.075 Y67.411 E8.08428
G1 X152.605 Y67.622 E8.13819
G1 X153.066 Y67.825 E8.18579
G1 X153.775 Y68.181 E8.26076
G1 X154.445 Y68.606 E8.33574
G1 X154.911 Y68.963 E8.39121
G1 X155.304 Y69.288 E8.43941
G1 X155.889 Y69.824 E8.51439
G1 X156.417 Y70.416 E8.58935
G1 X156.769 Y70.888 E8.64499
G1 X157.053 Y71.3 E8.69228
G1 X157.47 Y71.975 E8.76726
G1 X157.816 Y72.688 E8.84215
G1 X158.021 Y73.223 E8.89629
G1 X158.186 Y73.706 E8.94452
G1 X158.405 Y74.469 E9.01954
G1 X158.574 Y75.506 E9.11883
G1 X158.642 Y76.599 E9.22232
G1 X158.642 Y131.32 E14.39345
G1 X158.643 Y137.397 E14.96773
G1 X158.565 Y138.505 E15.07269
G1 X158.493 Y139.012 E15.12108
G1 X158.342 Y139.791 E15.19607
G1 X158.113 Y140.551 E15.27108
G1 X157.906 Y141.073 E15.32415
G1 X157.703 Y141.535 E15.37183
G1 X157.347 Y142.244 E15.44681
G1 X156.922 Y142.914 E15.52178
G1 X156.555 Y143.393 E15.57881
G1 X156.23 Y143.785 E15.62693
G1 X155.694 Y144.37 E15.70191
G1 X155.101 Y144.897 E15.77688
G1 X154.637 Y145.243 E15.83157
G1 X154.222 Y145.529 E15.8792
G1 X153.547 Y145.946 E15.95418
G1 X152.833 Y146.293 E16.0292
G1 X152.29 Y146.5 E16.08412
G1 X151.808 Y146.664 E16.13223
G1 X151.045 Y146.882 E16.20722
G1 X150.079 Y147.042 E16.29975
G1 X148.951 Y147.117 E16.40658
G1 X89.05 Y147.117 E22.06722
G1 X74.077 Y147.118 E23.48217
G1 X72.972 Y147.04 E23.58686
G1 X72.464 Y146.968 E23.63534
G1 X71.685 Y146.817 E23.71033
G1 X70.925 Y146.589 E23.78531
G1 X70.395 Y146.378 E23.83922
G1 X69.934 Y146.175 E23.88682
G1 X69.225 Y145.819 E23.96179
G1 X68.555 Y145.394 E24.03677
G1 X68.089 Y145.037 E24.09224
G1 X67.696 Y144.712 E24.14044
G1 X67.111 Y144.176 E24.21542
G1 X66.583 Y143.584 E24.29038
G1 X66.226 Y143.105 E24.34683
G1 X65.942 Y142.692 E24.3942
G1 X65.526 Y142.016 E24.46921
G1 X65.18 Y141.302 E24.54418
G1 X64.979 Y140.776 E24.5974
G1 X64.814 Y140.293 E24.64563
G1 X64.595 Y139.53 E24.72065
G1 X64.427 Y138.495 E24.81973
G1 X64.358 Y137.401 E24.92332
G1 X64.358 Y82.68 E30.09446
G1 X64.357 Y76.603 E30.66873
G1 X64.435 Y75.497 E30.77351
G1 X64.507 Y74.989 E30.82199
G1 X64.658 Y74.21 E30.89698
G1 X64.886 Y73.45 E30.97196
G1 X65.097 Y72.92 E31.02587
G1 X65.3 Y72.459 E31.07347
G1 X65.656 Y71.75 E31.14844
G1 X66.081 Y71.08 E31.22342
G1 X66.438 Y70.614 E31.2789
G1 X66.763 Y70.221 E31.32709
G1 X67.299 Y69.636 E31.40207
G0 F4500 X67.557 Y69.873
G1 F1800 X68.138 Y69.359 E31.47538
G1 X68.572 Y69.037 E31.52644
G1 X68.987 Y68.752 E31.57402
G1 X69.648 Y68.346 E31.64733
G1 X70.348 Y68.011 E31.72066
G1 X70.819 Y67.833 E31.76824
G1 X71.3 Y67.669 E31.81627
G1 X72.046 Y67.456 E31.88958
G1 X73.018 Y67.3 E31.98261
G1 X74.076 Y67.233 E32.08279
G1 X133.955 Y67.233 E37.74136
G1 X148.923 Y67.232 E39.15583
G1 X149.979 Y67.306 E39.25587
G1 X150.487 Y67.378 E39.30436
G1 X151.248 Y67.527 E39.37764
G1 X151.99 Y67.753 E39.45093
G1 X152.464 Y67.942 E39.49916
G1 X152.925 Y68.145 E39.54676
G1 X153.617 Y68.494 E39.62
G1 X154.271 Y68.912 E39.69335
G1 X154.688 Y69.233 E39.74308
G1 X155.081 Y69.558 E39.79127
G1 X155.652 Y70.082 E39.86451
G1 X156.166 Y70.663 E39.93781
G1 X156.481 Y71.086 E39.98765
G1 X156.765 Y71.498 E40.03494
G1 X157.171 Y72.159 E40.10825
G1 X157.508 Y72.857 E40.18149
G1 X157.69 Y73.336 E40.22992
G1 X157.855 Y73.819 E40.27815
G1 X158.068 Y74.565 E40.35146
G1 X158.225 Y75.54 E40.44479
G1 X158.292 Y76.599 E40.54506
G1 X158.292 Y131.32 E45.7162
G1 X158.293 Y137.397 E46.29047
G1 X158.218 Y138.456 E46.3908
G1 X158.146 Y138.963 E46.43919
G1 X157.998 Y139.724 E46.51245
G1 X157.772 Y140.466 E46.58575
G1 X157.585 Y140.932 E46.6332
G1 X157.382 Y141.394 E46.68089
G1 X157.034 Y142.087 E46.75417
G1 X156.616 Y142.741 E46.82752
G1 X156.286 Y143.17 E46.87867
G1 X155.961 Y143.562 E46.92679
G1 X155.436 Y144.133 E47.00009
G1 X154.855 Y144.646 E47.07333
G1 X154.438 Y144.955 E47.12238
G1 X154.023 Y145.241 E47.17001
G1 X153.363 Y145.648 E47.24328
G1 X152.664 Y145.984 E47.31657
G1 X152.177 Y146.169 E47.3658
G1 X151.695 Y146.333 E47.41392
G1 X150.949 Y146.545 E47.48721
G1 X150.043 Y146.694 E47.57397
G1 X148.951 Y146.767 E47.6774
G1 X89.05 Y146.767 E53.33804
G1 X74.077 Y146.768 E54.75299
G1 X73.021 Y146.694 E54.85303
G1 X72.513 Y146.622 E54.90151
G1 X71.752 Y146.473 E54.97479
G1 X71.01 Y146.247 E55.04809
G1 X70.536 Y146.058 E55.09632
G1 X70.075 Y145.855 E55.14392
G1 X69.383 Y145.506 E55.21716
G1 X68.729 Y145.088 E55.2905
G1 X68.312 Y144.767 E55.34023
G1 X67.919 Y144.442 E55.38843
G1 X67.348 Y143.918 E55.46166
G1 X66.834 Y143.337 E55.53497
G1 X66.515 Y142.907 E55.58557
G1 X66.231 Y142.494 E55.63293
G1 X65.825 Y141.833 E55.70624
G1 X65.489 Y141.134 E55.77953
G1 X65.31 Y140.663 E55.82714
G1 X65.145 Y140.18 E55.87538
G1 X64.932 Y139.434 E55.94869
G1 X64.775 Y138.461 E56.04183
G1 X64.708 Y137.401 E56.1422
G1 X64.708 Y82.68 E61.31333
G1 X64.707 Y76.603 E61.88761
G1 X64.781 Y75.546 E61.98774
G1 X64.853 Y75.038 E62.03623
G1 X65.002 Y74.277 E62.10951
G1 X65.228 Y73.535 E62.18281
G1 X65.417 Y73.061 E62.23103
G1 X65.62 Y72.6 E62.27863
G1 X65.969 Y71.908 E62.35187
G1 X66.387 Y71.254 E62.42522
G1 X66.708 Y70.837 E62.47495
G1 X67.033 Y70.444 E62.52314
G1 X67.557 Y69.873 E62.59638
G0 F4500 X67.816 Y70.11
G1 F1800 X68.384 Y69.61 E62.66789
G1 X69.185 Y69.04 E62.76079
G1 X69.831 Y68.645 E62.83235
G1 X70.515 Y68.32 E62.90391
G1 X71.413 Y68 E62.994
G1 X72.141 Y67.794 E63.06549
G1 X73.051 Y67.648 E63.15259
G1 X74.076 Y67.583 E63.24965
G1 X133.955 Y67.583 E68.90821
G1 X148.923 Y67.582 E70.32269
G1 X149.93 Y67.653 E70.41809
G1 X150.438 Y67.725 E70.46657
G1 X151.181 Y67.871 E70.53813
G1 X151.905 Y68.094 E70.60972
G1 X152.784 Y68.465 E70.69988
G1 X153.46 Y68.807 E70.77147
G1 X154.096 Y69.218 E70.84303
G1 X154.858 Y69.828 E70.93527
G1 X155.415 Y70.341 E71.00683
G1 X155.915 Y70.909 E71.07834
G1 X156.476 Y71.697 E71.16975
G1 X156.873 Y72.342 E71.24132
G1 X157.199 Y73.026 E71.31293
G1 X157.524 Y73.933 E71.40397
G1 X157.73 Y74.661 E71.47547
G1 X157.877 Y75.573 E71.56277
G1 X157.942 Y76.599 E71.65992
G1 X157.942 Y131.32 E76.83105
G1 X157.943 Y137.397 E77.40533
G1 X157.872 Y138.407 E77.50101
G1 X157.8 Y138.914 E77.5494
G1 X157.654 Y139.657 E77.62096
G1 X157.43 Y140.381 E77.69258
G1 X157.062 Y141.253 E77.78202
G1 X156.721 Y141.93 E77.85365
G1 X156.311 Y142.566 E77.92516
G1 X155.692 Y143.338 E78.01867
G1 X155.178 Y143.895 E78.09029
G1 X154.609 Y144.395 E78.16188
G1 X153.824 Y144.953 E78.25289
G1 X153.179 Y145.349 E78.32441
G1 X152.495 Y145.675 E78.39602
G1 X151.582 Y146.002 E78.48766
G1 X150.853 Y146.207 E78.55922
G1 X150.007 Y146.346 E78.64024
G1 X148.951 Y146.417 E78.74026
G1 X89.05 Y146.417 E84.40091
G1 X74.077 Y146.418 E85.81585
G1 X73.07 Y146.347 E85.91125
G1 X72.562 Y146.275 E85.95974
G1 X71.819 Y146.129 E86.03129
G1 X71.095 Y145.906 E86.10288
G1 X70.216 Y145.535 E86.19305
G1 X69.54 Y145.193 E86.26464
G1 X68.904 Y144.782 E86.3362
G1 X68.142 Y144.172 E86.42844
G1 X67.585 Y143.659 E86.5
G1 X67.085 Y143.091 E86.57151
G1 X66.519 Y142.295 E86.66381
G1 X66.123 Y141.65 E86.73533
G1 X65.798 Y140.966 E86.80689
G1 X65.476 Y140.066 E86.89722
G1 X65.27 Y139.338 E86.96872
G1 X65.123 Y138.428 E87.05583
G1 X65.058 Y137.401 E87.15308
G1 X65.058 Y82.68 E92.32421
G1 X65.057 Y76.603 E92.89849
G1 X65.128 Y75.595 E92.99398
G1 X65.2 Y75.087 E93.04246
G1 X65.346 Y74.344 E93.11402
G1 X65.569 Y73.62 E93.18561
G1 X65.94 Y72.741 E93.27577
G1 X66.282 Y72.065 E93.34736
G1 X66.693 Y71.429 E93.41892
G1 X67.303 Y70.667 E93.51116
G1 X67.816 Y70.11 E93.58272
G0 F4500 X68.073 Y70.348
G1 F1800 X68.63 Y69.862 E93.65258
G1 X69.383 Y69.329 E93.73976
G1 X70.014 Y68.944 E93.80961
G1 X70.682 Y68.63 E93.87936
G1 X71.525 Y68.331 E93.96389
G1 X72.236 Y68.131 E94.03369
G1 X73.084 Y67.996 E94.11483
G1 X74.076 Y67.933 E94.20877
G1 X133.955 Y67.933 E99.86733
G1 X148.923 Y67.932 E101.28181
G1 X149.881 Y68 E101.37257
G1 X150.389 Y68.072 E101.42105
G1 X151.113 Y68.215 E101.49079
G1 X151.818 Y68.435 E101.56058
G1 X152.643 Y68.786 E101.64531
G1 X153.301 Y69.12 E101.71504
G1 X153.92 Y69.523 E101.78484
G1 X154.634 Y70.097 E101.87141
G1 X155.177 Y70.598 E101.94123
G1 X155.663 Y71.155 E102.01109
G1 X156.188 Y71.895 E102.09683
G1 X156.574 Y72.525 E102.16665
G1 X156.889 Y73.193 E102.23644
G1 X157.193 Y74.046 E102.32202
G1 X157.393 Y74.757 E102.39182
G1 X157.528 Y75.606 E102.47305
G1 X157.592 Y76.599 E102.56709
G1 X157.592 Y131.32 E107.73822
G1 X157.593 Y137.397 E108.3125
G1 X157.525 Y138.358 E108.40354
G1 X157.453 Y138.865 E108.45193
G1 X157.31 Y139.589 E108.52167
G1 X157.089 Y140.294 E108.59149
G1 X156.741 Y141.113 E108.67558
G1 X156.408 Y141.772 E108.74536
G1 X156.006 Y142.391 E108.81511
G1 X155.422 Y143.115 E108.90301
G1 X154.921 Y143.657 E108.97276
G1 X154.363 Y144.142 E109.04262
G1 X153.626 Y144.665 E109.12802
G1 X152.996 Y145.05 E109.1978
G1 X152.328 Y145.366 E109.26763
G1 X151.469 Y145.67 E109.35374
G1 X150.758 Y145.87 E109.42353
G1 X149.971 Y145.998 E109.49888
G1 X148.951 Y146.067 E109.59549
G1 X89.05 Y146.067 E115.25614
G1 X74.077 Y146.068 E116.67109
G1 X73.119 Y146 E116.76185
G1 X72.611 Y145.928 E116.81033
G1 X71.887 Y145.785 E116.88007
G1 X71.182 Y145.565 E116.94986
G1 X70.357 Y145.214 E117.03459
G1 X69.699 Y144.88 E117.10432
G1 X69.08 Y144.477 E117.17412
G1 X68.366 Y143.903 E117.26069
G1 X67.823 Y143.402 E117.33051
G1 X67.337 Y142.845 E117.40037
G1 X66.807 Y142.097 E117.487
G1 X66.422 Y141.467 E117.55677
G1 X66.108 Y140.798 E117.62661
G1 X65.807 Y139.953 E117.71138
G1 X65.607 Y139.242 E117.78117
G1 X65.472 Y138.395 E117.86223
G1 X65.408 Y137.401 E117.95635
G1 X65.408 Y82.68 E123.12749
G1 X65.407 Y76.603 E123.70176
G1 X65.475 Y75.644 E123.79262
G1 X65.547 Y75.136 E123.8411
G1 X65.69 Y74.412 E123.91084
G1 X65.91 Y73.707 E123.98063
G1 X66.261 Y72.882 E124.06536
G1 X66.595 Y72.224 E124.13509
G1 X66.998 Y71.605 E124.20489
G1 X67.572 Y70.891 E124.29147
G1 X68.073 Y70.348 E124.36128
G0 F4500 X68.331 Y70.585
G1 F1800 X68.875 Y70.115 E124.42922
G1 X69.581 Y69.617 E124.51087
G1 X70.196 Y69.244 E124.57884
G1 X71.157 Y68.826 E124.67787
G1 X71.638 Y68.662 E124.72589
G1 X72.331 Y68.468 E124.7939
G1 X73.117 Y68.345 E124.86908
G1 X74.076 Y68.283 E124.9599
G1 X133.955 Y68.283 E130.61846
G1 X148.923 Y68.282 E132.03294
G1 X149.832 Y68.346 E132.11905
G1 X150.34 Y68.418 E132.16754
G1 X151.045 Y68.558 E132.23546
G1 X152.04 Y68.903 E132.33498
G1 X152.501 Y69.106 E132.38258
G1 X153.143 Y69.432 E132.45062
G1 X154.018 Y70.042 E132.55142
G1 X154.411 Y70.367 E132.59961
G1 X154.94 Y70.856 E132.66769
G1 X155.616 Y71.682 E132.76856
G1 X155.9 Y72.094 E132.81584
G1 X156.275 Y72.708 E132.88383
G1 X156.696 Y73.676 E132.98358
G1 X156.861 Y74.159 E133.03182
G1 X157.056 Y74.851 E133.09976
G1 X157.18 Y75.639 E133.17514
G1 X157.242 Y76.599 E133.26605
G1 X157.242 Y131.32 E138.43718
G1 X157.243 Y137.397 E139.01146
G1 X157.179 Y138.308 E139.09776
G1 X157.107 Y138.815 E139.14616
G1 X156.966 Y139.521 E139.21419
G1 X156.624 Y140.51 E139.31308
G1 X156.421 Y140.972 E139.36077
G1 X156.095 Y141.613 E139.42873
G1 X155.701 Y142.215 E139.49672
G1 X155.153 Y142.892 E139.57903
G1 X154.663 Y143.419 E139.64703
G1 X153.842 Y144.091 E139.74729
G1 X153.427 Y144.377 E139.79492
G1 X152.813 Y144.751 E139.86286
G1 X151.839 Y145.175 E139.96324
G1 X151.357 Y145.339 E140.01136
G1 X150.664 Y145.532 E140.07934
G1 X149.935 Y145.65 E140.14912
G1 X148.951 Y145.717 E140.24233
G1 X89.05 Y145.717 E145.90297
G1 X74.077 Y145.718 E147.31792
G1 X73.168 Y145.654 E147.40403
G1 X72.66 Y145.582 E147.45252
G1 X71.955 Y145.442 E147.52044
G1 X70.96 Y145.097 E147.61996
G1 X70.499 Y144.894 E147.66756
G1 X69.857 Y144.568 E147.73561
G1 X68.982 Y143.958 E147.8364
G1 X68.589 Y143.633 E147.8846
G1 X68.06 Y143.144 E147.95267
G1 X67.38 Y142.312 E148.05422
G1 X67.096 Y141.899 E148.10158
G1 X66.722 Y141.284 E148.1696
G1 X66.304 Y140.323 E148.26864
G1 X66.139 Y139.84 E148.31687
G1 X65.944 Y139.148 E148.38481
G1 X65.82 Y138.362 E148.46001
G1 X65.758 Y137.401 E148.55101
G1 X65.758 Y82.68 E153.72214
G1 X65.757 Y76.603 E154.29642
G1 X65.821 Y75.693 E154.38263
G1 X65.893 Y75.185 E154.43111
G1 X66.033 Y74.48 E154.49904
G1 X66.378 Y73.485 E154.59856
G1 X66.581 Y73.024 E154.64616
G1 X66.907 Y72.382 E154.7142
G1 X67.517 Y71.507 E154.815
G1 X67.842 Y71.114 E154.86319
G1 X68.331 Y70.585 E154.93127
G0 F4500 X68.588 Y70.824
G1 F1800 X69.365 Y70.191 E155.02598
G1 X69.78 Y69.906 E155.07355
G1 X70.378 Y69.543 E155.13966
G1 X71.27 Y69.158 E155.23147
G1 X71.751 Y68.994 E155.27949
G1 X72.425 Y68.806 E155.34562
G1 X73.15 Y68.693 E155.41496
G1 X74.076 Y68.633 E155.50265
G1 X133.955 Y68.633 E161.16121
G1 X148.923 Y68.632 E162.57569
G1 X149.783 Y68.693 E162.65716
G1 X150.291 Y68.765 E162.70565
G1 X150.977 Y68.902 E162.77176
G1 X151.899 Y69.223 E162.86401
G1 X152.36 Y69.426 E162.91162
G1 X152.984 Y69.745 E162.97784
G1 X153.795 Y70.312 E163.07135
G1 X154.188 Y70.637 E163.11955
G1 X154.701 Y71.113 E163.18568
G1 X155.328 Y71.881 E163.27937
G1 X155.612 Y72.293 E163.32666
G1 X155.976 Y72.891 E163.39282
G1 X156.365 Y73.789 E163.4853
G1 X156.53 Y74.272 E163.53353
G1 X156.718 Y74.946 E163.59965
G1 X156.831 Y75.672 E163.66909
G1 X156.892 Y76.599 E163.75688
G1 X156.892 Y131.32 E168.92801
G1 X156.893 Y137.397 E169.50229
G1 X156.832 Y138.259 E169.58395
G1 X156.76 Y138.766 E169.63234
G1 X156.622 Y139.452 E169.69847
G1 X156.304 Y140.369 E169.79019
G1 X156.101 Y140.831 E169.83788
G1 X155.783 Y141.454 E169.90398
G1 X155.208 Y142.276 E169.99877
G1 X154.883 Y142.668 E170.04689
G1 X154.407 Y143.181 E170.11303
G1 X153.644 Y143.802 E170.20599
G1 X153.229 Y144.088 E170.25362
G1 X152.631 Y144.452 E170.31978
G1 X151.726 Y144.844 E170.41298
G1 X151.244 Y145.008 E170.46109
G1 X150.57 Y145.195 E170.52719
G1 X149.899 Y145.302 E170.5914
G1 X148.951 Y145.367 E170.6812
G1 X89.05 Y145.367 E176.34184
G1 X74.077 Y145.368 E177.75679
G1 X73.217 Y145.307 E177.83827
G1 X72.709 Y145.235 E177.88675
G1 X72.023 Y145.098 E177.95286
G1 X71.101 Y144.777 E178.04512
G1 X70.64 Y144.574 E178.09272
G1 X70.016 Y144.255 E178.15894
G1 X69.205 Y143.688 E178.25246
G1 X68.812 Y143.363 E178.30065
G1 X68.299 Y142.887 E178.36678
G1 X67.668 Y142.114 E178.46108
G1 X67.384 Y141.701 E178.50844
G1 X67.021 Y141.102 E178.57463
G1 X66.635 Y140.21 E178.66648
G1 X66.47 Y139.727 E178.71471
G1 X66.282 Y139.053 E178.78084
G1 X66.169 Y138.329 E178.85008
G1 X66.108 Y137.401 E178.93797
G1 X66.108 Y82.68 E184.1091
G1 X66.107 Y76.603 E184.68338
G1 X66.168 Y75.742 E184.76495
G1 X66.24 Y75.234 E184.81344
G1 X66.377 Y74.548 E184.87954
G1 X66.698 Y73.626 E184.9718
G1 X66.901 Y73.165 E185.0194
G1 X67.22 Y72.541 E185.08563
G1 X67.787 Y71.73 E185.17914
G1 X68.112 Y71.337 E185.22733
G1 X68.588 Y70.824 E185.29347
G0 F4500 X68.845 Y71.062
G1 F1800 X69.563 Y70.479 E185.38087
G1 X69.978 Y70.194 E185.42844
G1 X70.559 Y69.843 E185.49259
G1 X71.383 Y69.489 E185.57734
G1 X71.864 Y69.325 E185.62536
G1 X72.519 Y69.144 E185.68958
G1 X73.183 Y69.042 E185.75306
G1 X74.076 Y68.983 E185.83764
G1 X133.955 Y68.983 E191.4962
G1 X148.923 Y68.982 E192.91068
G1 X149.733 Y69.039 E192.98741
G1 X150.241 Y69.111 E193.0359
G1 X150.907 Y69.246 E193.10012
G1 X151.758 Y69.544 E193.18532
G1 X152.219 Y69.747 E193.23292
G1 X152.824 Y70.057 E193.29717
G1 X153.572 Y70.582 E193.38352
G1 X153.965 Y70.907 E193.43172
G1 X154.463 Y71.37 E193.49598
G1 X155.04 Y72.079 E193.58236
G1 X155.324 Y72.491 E193.62965
G1 X155.676 Y73.073 E193.69392
G1 X156.034 Y73.902 E193.77926
G1 X156.199 Y74.385 E193.82749
G1 X156.38 Y75.04 E193.89171
G1 X156.483 Y75.705 E193.9553
G1 X156.542 Y76.599 E194.03997
