;FLAVOR:UltiGCode
;TIME:7788
;MATERIAL:13216
;MATERIAL2:0
;NOZZLE_DIAMETER:0.4
;MINX:65.097
;MINY:75.947
;MINZ:0.27
;MAXX:157.902
;MAXY:155.303
;MAXZ:8.22
;Generated with Cura_SteamEngine 4.5.0
M82 ;absolute extrusion mode

G92 E0
G92 E0
G10
;LAYER_COUNT:54
;LAYER:0
M107
G0 F4500 X68.576 Y78.037 Z0.27
;TYPE:SKIRT
G11
G1 F1800 X69.213 Y77.564 E0.07498
G1 X69.983 Y77.111 E0.1594
G1 X71.133 Y76.566 E0.27966
G1 X71.885 Y76.313 E0.35464
G1 X72.791 Y76.116 E0.44226
G1 X74.046 Y75.96 E0.56177
G1 X148.524 Y75.947 E7.59994
G1 X149.316 Y75.987 E7.67488
G1 X150.245 Y76.123 E7.7636
G1 X151.021 Y76.289 E7.8386
G1 X151.776 Y76.532 E7.91355
G1 X152.575 Y76.887 E7.99617
G1 X153.689 Y77.501 E8.11637
G1 X154.333 Y77.965 E8.19138
G1 X154.982 Y78.547 E8.27376
G1 X155.836 Y79.456 E8.39163
G1 X156.306 Y80.095 E8.46659
G1 X156.746 Y80.849 E8.54908
G1 X157.29 Y82.001 E8.66948
G1 X157.541 Y82.753 E8.74439
G1 X157.724 Y83.584 E8.82481
G1 X157.886 Y84.809 E8.94158
G1 X157.902 Y137.268 E13.89895
G1 X157.902 Y145.924 E14.71694
G1 X157.862 Y146.716 E14.79188
G1 X157.733 Y147.613 E14.87752
G1 X157.57 Y148.39 E14.95255
G1 X157.33 Y149.146 E15.0275
G1 X156.981 Y149.942 E15.10964
G1 X156.375 Y151.05 E15.22898
G1 X155.915 Y151.696 E15.30392
G1 X155.336 Y152.349 E15.38639
G1 X154.424 Y153.213 E15.50511
G1 X153.787 Y153.686 E15.58009
G1 X153.017 Y154.139 E15.66451
G1 X151.867 Y154.684 E15.78478
G1 X151.115 Y154.937 E15.85975
G1 X150.209 Y155.134 E15.94737
G1 X148.954 Y155.29 E16.06688
G1 X74.476 Y155.303 E23.10505
G1 X73.684 Y155.263 E23.17999
G1 X72.739 Y155.124 E23.27025
G1 X71.963 Y154.958 E23.34525
G1 X71.208 Y154.714 E23.42023
G1 X70.362 Y154.334 E23.50787
G1 X69.255 Y153.712 E23.62786
G1 X68.615 Y153.244 E23.70279
G1 X67.97 Y152.657 E23.7852
G1 X67.114 Y151.732 E23.9043
G1 X66.649 Y151.089 E23.97929
G1 X66.205 Y150.313 E24.06378
G1 X65.679 Y149.169 E24.18276
G1 X65.436 Y148.414 E24.25772
G1 X65.264 Y147.598 E24.33652
G1 X65.11 Y146.355 E24.45488
G1 X65.097 Y85.326 E30.22212
G1 X65.137 Y84.534 E30.29706
G1 X65.27 Y83.62 E30.38435
G1 X65.434 Y82.844 E30.4593
G1 X65.676 Y82.088 E30.53431
G1 X66.019 Y81.308 E30.61483
G1 X66.625 Y80.2 E30.73418
G1 X67.085 Y79.554 E30.80912
G1 X67.664 Y78.901 E30.89159
G1 X68.576 Y78.037 E31.01031
G0 F4500 X68.812 Y78.296
G1 F1800 X69.437 Y77.836 E31.08365
G1 X70.144 Y77.423 E31.16102
G1 X71.277 Y76.885 E31.27955
G1 X72.013 Y76.641 E31.35282
G1 X72.845 Y76.462 E31.43324
G1 X74.083 Y76.308 E31.55114
G1 X148.524 Y76.297 E38.58581
G1 X149.298 Y76.337 E38.65905
G1 X150.189 Y76.468 E38.74416
G1 X150.947 Y76.631 E38.81743
G1 X151.685 Y76.872 E38.89079
G1 X152.416 Y77.198 E38.96643
G1 X153.513 Y77.805 E39.08491
G1 X154.141 Y78.26 E39.15819
G1 X154.735 Y78.794 E39.23367
G1 X155.575 Y79.691 E39.34981
G1 X156.033 Y80.317 E39.4231
G1 X156.434 Y81.008 E39.4986
G1 X156.97 Y82.144 E39.6173
G1 X157.213 Y82.881 E39.69064
G1 X157.379 Y83.641 E39.76415
G1 X157.537 Y84.848 E39.87919
G1 X157.552 Y137.268 E44.83288
G1 X157.552 Y145.924 E45.65087
G1 X157.512 Y146.698 E45.72411
G1 X157.387 Y147.559 E45.80633
G1 X157.227 Y148.318 E45.87963
G1 X156.99 Y149.056 E45.95288
G1 X156.668 Y149.784 E46.0281
G1 X156.071 Y150.876 E46.14571
G1 X155.618 Y151.506 E46.21904
G1 X155.087 Y152.103 E46.29454
G1 X154.188 Y152.954 E46.41153
G1 X153.563 Y153.414 E46.48486
G1 X152.856 Y153.827 E46.56224
G1 X151.723 Y154.365 E46.68076
G1 X150.987 Y154.609 E46.75404
G1 X150.155 Y154.788 E46.83446
G1 X148.917 Y154.942 E46.95235
G1 X74.476 Y154.953 E53.98703
G1 X73.702 Y154.913 E54.06027
G1 X72.795 Y154.779 E54.14691
G1 X72.037 Y154.615 E54.2202
G1 X71.3 Y154.374 E54.29347
G1 X70.523 Y154.024 E54.37401
G1 X69.433 Y153.41 E54.49223
G1 X68.809 Y152.95 E54.56549
G1 X68.219 Y152.412 E54.64094
G1 X67.376 Y151.499 E54.75837
G1 X66.923 Y150.869 E54.8317
G1 X66.518 Y150.157 E54.90911
G1 X66 Y149.029 E55.02641
G1 X65.765 Y148.29 E55.09969
G1 X65.609 Y147.544 E55.17171
G1 X65.458 Y146.318 E55.28844
G1 X65.447 Y85.326 E61.05219
G1 X65.487 Y84.552 E61.12543
G1 X65.615 Y83.675 E61.20918
G1 X65.777 Y82.917 E61.28243
G1 X66.016 Y82.179 E61.35574
G1 X66.332 Y81.466 E61.42944
G1 X66.929 Y80.374 E61.54705
G1 X67.382 Y79.744 E61.62038
G1 X67.913 Y79.147 E61.69588
G1 X68.812 Y78.296 E61.81286
G0 F4500 X69.048 Y78.556
G1 F1800 X69.659 Y78.109 E61.8844
G1 X70.304 Y77.734 E61.95491
G1 X71.42 Y77.205 E62.07162
G1 X72.14 Y76.969 E62.14322
G1 X72.9 Y76.807 E62.21665
G1 X73.366 Y76.734 E62.26123
G1 X74.476 Y76.648 E62.36644
G1 X148.524 Y76.647 E69.36397
G1 X149.28 Y76.687 E69.43551
G1 X150.133 Y76.814 E69.51701
G1 X150.873 Y76.974 E69.58856
G1 X151.592 Y77.211 E69.6601
G1 X152.257 Y77.51 E69.729
G1 X153.338 Y78.108 E69.84574
G1 X153.949 Y78.555 E69.91729
G1 X154.487 Y79.042 E69.98586
G1 X155.315 Y79.926 E70.10032
G1 X155.759 Y80.539 E70.17185
G1 X156.122 Y81.168 E70.24048
G1 X156.65 Y82.287 E70.35741
G1 X156.885 Y83.007 E70.42898
G1 X157.034 Y83.698 E70.49578
G1 X157.189 Y84.887 E70.60909
G1 X157.202 Y137.268 E75.55909
G1 X157.202 Y145.924 E76.37709
G1 X157.114 Y147.041 E76.48297
G1 X156.884 Y148.245 E76.59881
G1 X156.65 Y148.965 E76.67035
G1 X156.356 Y149.626 E76.73871
G1 X155.767 Y150.702 E76.85463
G1 X155.323 Y151.315 E76.92616
G1 X154.839 Y151.856 E76.99476
G1 X153.952 Y152.694 E77.11007
G1 X153.341 Y153.141 E77.18161
G1 X152.696 Y153.516 E77.25212
G1 X151.58 Y154.045 E77.36883
G1 X150.86 Y154.281 E77.44043
G1 X150.1 Y154.443 E77.51386
G1 X149.634 Y154.516 E77.55844
G1 X148.524 Y154.602 E77.66365
G1 X74.476 Y154.603 E84.66118
G1 X73.72 Y154.563 E84.73273
G1 X72.852 Y154.433 E84.81567
G1 X72.111 Y154.272 E84.88732
G1 X71.392 Y154.035 E84.95887
G1 X70.685 Y153.713 E85.03228
G1 X69.611 Y153.108 E85.14877
G1 X69.003 Y152.657 E85.22031
G1 X68.468 Y152.166 E85.28893
G1 X67.638 Y151.266 E85.40462
G1 X67.198 Y150.649 E85.47624
G1 X66.831 Y150.001 E85.54661
G1 X66.322 Y148.889 E85.66218
G1 X66.095 Y148.166 E85.73379
G1 X65.955 Y147.49 E85.79903
G1 X65.884 Y147.036 E85.84246
G1 X65.798 Y145.927 E85.94757
G1 X65.797 Y85.326 E91.67437
G1 X65.837 Y84.57 E91.74591
G1 X65.961 Y83.731 E91.82606
G1 X66.12 Y82.99 E91.89767
G1 X66.356 Y82.27 E91.96928
G1 X66.644 Y81.624 E92.03611
G1 X67.233 Y80.548 E92.15203
G1 X67.677 Y79.935 E92.22356
G1 X68.161 Y79.394 E92.29216
G1 X69.048 Y78.556 E92.40747
G0 F4500 X69.283 Y78.815
G1 F1800 X69.881 Y78.382 E92.47724
G1 X70.464 Y78.045 E92.54088
G1 X71.564 Y77.524 E92.6559
G1 X72.267 Y77.297 E92.72571
G1 X72.954 Y77.153 E92.79204
G1 X73.42 Y77.08 E92.83662
G1 X74.476 Y76.998 E92.93671
G1 X148.524 Y76.997 E99.93424
G1 X149.613 Y77.084 E100.03748
G1 X150.799 Y77.317 E100.1517
G1 X151.499 Y77.551 E100.22145
G1 X152.097 Y77.821 E100.28345
G1 X153.162 Y78.411 E100.39851
G1 X153.756 Y78.849 E100.46825
G1 X154.24 Y79.289 E100.53007
G1 X155.054 Y80.16 E100.64272
G1 X155.485 Y80.76 E100.71254
G1 X155.811 Y81.327 E100.77434
G1 X156.33 Y82.43 E100.88954
G1 X156.556 Y83.133 E100.95932
G1 X156.688 Y83.754 E101.01932
G1 X156.841 Y84.926 E101.13101
G1 X156.852 Y137.268 E106.07733
G1 X156.852 Y145.924 E106.89532
G1 X156.769 Y146.987 E106.99608
G1 X156.541 Y148.172 E107.11012
G1 X156.31 Y148.874 E107.17996
G1 X156.044 Y149.468 E107.24146
G1 X155.463 Y150.527 E107.35561
G1 X155.028 Y151.124 E107.42541
G1 X154.59 Y151.61 E107.48724
G1 X153.717 Y152.435 E107.60075
G1 X153.119 Y152.868 E107.67052
G1 X152.536 Y153.205 E107.73415
G1 X151.436 Y153.726 E107.84917
G1 X150.733 Y153.953 E107.91898
G1 X150.046 Y154.097 E107.98532
G1 X149.58 Y154.17 E108.02989
G1 X148.524 Y154.252 E108.12998
G1 X74.476 Y154.253 E115.12752
G1 X73.382 Y154.165 E115.23123
G1 X72.186 Y153.93 E115.34642
G1 X71.486 Y153.695 E115.4162
G1 X70.847 Y153.403 E115.48259
G1 X69.789 Y152.807 E115.59734
G1 X69.198 Y152.364 E115.66714
G1 X68.718 Y151.92 E115.72893
G1 X67.901 Y151.034 E115.84282
G1 X67.474 Y150.431 E115.91264
G1 X67.145 Y149.844 E115.97623
G1 X66.643 Y148.75 E116.08998
G1 X66.425 Y148.044 E116.15981
G1 X66.301 Y147.436 E116.21844
G1 X66.148 Y145.927 E116.36178
G1 X66.147 Y85.326 E122.08857
G1 X66.233 Y84.249 E122.19067
G1 X66.462 Y83.064 E122.30473
G1 X66.695 Y82.363 E122.37453
G1 X66.956 Y81.782 E122.43472
G1 X67.537 Y80.723 E122.54887
G1 X67.972 Y80.126 E122.61868
G1 X68.41 Y79.64 E122.6805
G1 X69.283 Y78.815 E122.79401
G0 F4500 X69.519 Y79.075
G1 F1800 X70.103 Y78.655 E122.86199
G1 X70.624 Y78.356 E122.91875
G1 X71.707 Y77.845 E123.03192
G1 X72.392 Y77.626 E123.09988
G1 X73.008 Y77.499 E123.15931
G1 X74.476 Y77.348 E123.29877
G1 X148.524 Y77.347 E130.29631
G1 X149.557 Y77.43 E130.39424
G1 X150.724 Y77.659 E130.50663
G1 X151.405 Y77.89 E130.57458
G1 X151.938 Y78.133 E130.62994
G1 X152.985 Y78.714 E130.74309
G1 X153.562 Y79.143 E130.81104
G1 X153.993 Y79.536 E130.86616
G1 X154.793 Y80.394 E130.97702
G1 X155.21 Y80.98 E131.04498
G1 X155.499 Y81.487 E131.10013
G1 X156.01 Y82.572 E131.21347
G1 X156.227 Y83.258 E131.28146
G1 X156.343 Y83.811 E131.33486
G1 X156.415 Y84.248 E131.37671
G1 X156.501 Y85.301 E131.47655
G1 X156.502 Y137.268 E136.38743
G1 X156.502 Y145.924 E137.20542
G1 X156.423 Y146.932 E137.30097
G1 X156.199 Y148.099 E137.41327
G1 X155.97 Y148.781 E137.48125
G1 X155.732 Y149.31 E137.53607
G1 X155.16 Y150.352 E137.6484
G1 X154.733 Y150.931 E137.71638
G1 X154.341 Y151.363 E137.77151
G1 X153.481 Y152.175 E137.88328
G1 X152.897 Y152.595 E137.95126
G1 X152.376 Y152.894 E138.00802
G1 X151.293 Y153.405 E138.12119
G1 X150.608 Y153.624 E138.18915
G1 X149.992 Y153.751 E138.24858
G1 X148.524 Y153.902 E138.38804
G1 X74.476 Y153.903 E145.38558
G1 X73.438 Y153.819 E145.48399
G1 X72.261 Y153.588 E145.59734
G1 X71.58 Y153.356 E145.66533
G1 X71.009 Y153.093 E145.72473
G1 X69.968 Y152.505 E145.83772
G1 X69.394 Y152.071 E145.90572
G1 X68.967 Y151.675 E145.96075
G1 X68.163 Y150.802 E146.07291
G1 X67.751 Y150.213 E146.14083
G1 X67.458 Y149.688 E146.19765
G1 X66.965 Y148.611 E146.30958
G1 X66.755 Y147.922 E146.37765
G1 X66.647 Y147.381 E146.42978
G1 X66.498 Y145.927 E146.56791
G1 X66.497 Y85.326 E152.2947
G1 X66.578 Y84.304 E152.39158
G1 X66.805 Y83.138 E152.50384
G1 X67.035 Y82.456 E152.57185
G1 X67.268 Y81.94 E152.62536
G1 X67.84 Y80.898 E152.73769
G1 X68.267 Y80.319 E152.80567
G1 X68.659 Y79.887 E152.8608
G1 X69.519 Y79.075 E152.97257
G0 F4500 X69.753 Y79.336
G1 F1800 X70.323 Y78.93 E153.0387
G1 X70.784 Y78.668 E153.08881
G1 X71.849 Y78.165 E153.20011
G1 X72.517 Y77.956 E153.26626
G1 X73.062 Y77.845 E153.31882
G1 X74.476 Y77.698 E153.45316
G1 X148.524 Y77.697 E160.45069
G1 X149.501 Y77.775 E160.54331
G1 X150.649 Y78.001 E160.65388
G1 X151.31 Y78.229 E160.71996
G1 X151.778 Y78.444 E160.76863
G1 X152.808 Y79.016 E160.87997
G1 X153.367 Y79.437 E160.9461
G1 X153.745 Y79.784 E160.99459
G1 X154.532 Y80.627 E161.10357
G1 X154.935 Y81.199 E161.16969
G1 X155.188 Y81.646 E161.21823
G1 X155.689 Y82.714 E161.32971
G1 X155.897 Y83.382 E161.39583
G1 X156.07 Y84.305 E161.48457
G1 X156.151 Y85.301 E161.579
G1 X156.152 Y137.268 E166.48988
G1 X156.152 Y145.924 E167.30787
G1 X156.077 Y146.878 E167.39831
G1 X155.856 Y148.025 E167.50869
G1 X155.631 Y148.687 E167.57476
G1 X155.419 Y149.152 E167.62306
G1 X154.856 Y150.177 E167.73357
G1 X154.438 Y150.738 E167.79968
G1 X154.093 Y151.117 E167.84811
G1 X153.247 Y151.914 E167.95795
G1 X152.677 Y152.32 E168.02408
G1 X152.216 Y152.582 E168.07419
G1 X151.151 Y153.085 E168.1855
G1 X150.483 Y153.294 E168.25164
G1 X149.938 Y153.405 E168.3042
G1 X148.524 Y153.552 E168.43854
G1 X74.476 Y153.553 E175.43608
G1 X73.494 Y153.474 E175.52918
G1 X72.337 Y153.245 E175.64063
G1 X71.675 Y153.017 E175.7068
G1 X71.171 Y152.782 E175.75935
G1 X70.148 Y152.204 E175.87039
G1 X69.591 Y151.779 E175.9366
G1 X69.216 Y151.429 E175.98507
G1 X68.427 Y150.57 E176.09529
G1 X68.028 Y149.995 E176.16143
G1 X67.771 Y149.532 E176.21147
G1 X67.287 Y148.472 E176.32159
G1 X67.086 Y147.802 E176.38769
G1 X66.922 Y146.873 E176.47684
G1 X66.848 Y145.927 E176.56651
G1 X66.847 Y85.326 E182.29331
G1 X66.924 Y84.359 E182.38498
G1 X67.147 Y83.213 E182.49531
G1 X67.374 Y82.551 E182.56144
G1 X67.793 Y81.679 E182.65286
G1 X68.144 Y81.073 E182.71904
G1 X68.562 Y80.512 E182.78516
G1 X68.907 Y80.133 E182.83359
G1 X69.753 Y79.336 E182.94342
G0 F4500 X69.988 Y79.597
G1 F1800 X70.543 Y79.205 E183.00763
G1 X71.37 Y78.76 E183.09638
G1 X71.991 Y78.485 E183.16056
G1 X72.641 Y78.286 E183.2248
G1 X73.582 Y78.118 E183.31513
G1 X74.476 Y78.048 E183.39987
G1 X148.524 Y78.047 E190.39741
G1 X149.445 Y78.121 E190.48473
G1 X150.573 Y78.344 E190.59338
G1 X151.214 Y78.568 E190.65755
G1 X152.045 Y78.974 E190.74495
G1 X152.63 Y79.319 E190.80913
G1 X153.171 Y79.73 E190.87334
G1 X153.819 Y80.352 E190.95822
G1 X154.27 Y80.86 E191.02241
G1 X154.658 Y81.418 E191.08664
G1 X155.095 Y82.233 E191.17403
G1 X155.368 Y82.855 E191.23822
G1 X155.567 Y83.505 E191.30246
G1 X155.724 Y84.362 E191.38479
G1 X155.801 Y85.301 E191.47383
G1 X155.802 Y137.268 E196.38471
G1 X155.802 Y145.924 E197.2027
G1 X155.732 Y146.823 E197.28791
G1 X155.513 Y147.95 E197.39641
G1 X155.291 Y148.592 E197.4606
G1 X154.895 Y149.413 E197.54674
G1 X154.553 Y150 E197.61094
G1 X154.145 Y150.543 E197.67512
G1 X153.518 Y151.2 E197.76095
G1 X153.012 Y151.653 E197.82512
G1 X152.457 Y152.045 E197.88934
G1 X151.63 Y152.49 E197.97808
G1 X151.009 Y152.765 E198.04226
G1 X150.359 Y152.964 E198.1065
G1 X149.418 Y153.132 E198.19683
G1 X148.524 Y153.202 E198.28158
G1 X74.476 Y153.203 E205.27911
G1 X73.55 Y153.128 E205.3669
G1 X72.413 Y152.903 E205.47643
G1 X71.772 Y152.678 E205.54063
G1 X70.91 Y152.252 E205.6315
G1 X70.327 Y151.903 E205.69571
G1 X69.789 Y151.488 E205.75992
G1 X69.138 Y150.851 E205.84599
G1 X68.69 Y150.339 E205.91028
G1 X68.306 Y149.779 E205.97445
G1 X67.876 Y148.959 E206.06194
G1 X67.609 Y148.334 E206.12617
G1 X67.417 Y147.682 E206.1904
G1 X67.267 Y146.819 E206.27318
G1 X67.198 Y145.927 E206.35772
G1 X67.197 Y85.326 E212.08452
G1 X67.269 Y84.415 E212.17087
G1 X67.49 Y83.288 E212.2794
G1 X67.713 Y82.647 E212.34354
G1 X68.105 Y81.837 E212.42858
G1 X68.447 Y81.25 E212.49278
G1 X68.855 Y80.707 E212.55696
G1 X69.482 Y80.05 E212.64278
G1 X69.988 Y79.597 E212.70696
G0 F4500 X70.221 Y79.858
G1 F1800 X70.762 Y79.482 E212.76922
G1 X71.53 Y79.071 E212.85154
G1 X72.132 Y78.806 E212.91369
G1 X72.763 Y78.616 E212.97597
G1 X73.636 Y78.463 E213.05972
G1 X74.476 Y78.398 E213.13934
G1 X148.524 Y78.397 E220.13688
G1 X149.39 Y78.467 E220.21898
G1 X150.496 Y78.686 E220.32553
G1 X151.116 Y78.907 E220.38773
G1 X151.885 Y79.286 E220.46875
G1 X152.452 Y79.621 E220.53098
G1 X152.974 Y80.022 E220.59318
G1 X153.571 Y80.6 E220.67171
G1 X154.008 Y81.093 E220.73397
G1 X154.381 Y81.635 E220.79614
G1 X154.783 Y82.393 E220.87722
G1 X155.047 Y82.996 E220.93943
G1 X155.236 Y83.627 E221.00168
G1 X155.379 Y84.419 E221.07773
G1 X155.451 Y85.301 E221.16136
G1 X155.452 Y137.268 E226.07224
G1 X155.452 Y145.924 E226.89023
G1 X155.386 Y146.769 E226.97033
G1 X155.171 Y147.875 E227.0768
G1 X154.952 Y148.496 E227.13903
G1 X154.583 Y149.255 E227.21878
G1 X154.25 Y149.824 E227.28108
G1 X153.851 Y150.348 E227.34332
G1 X153.27 Y150.953 E227.42259
G1 X152.779 Y151.392 E227.48483
G1 X152.238 Y151.768 E227.54709
G1 X151.47 Y152.179 E227.6294
G1 X150.868 Y152.444 E227.69156
G1 X150.237 Y152.634 E227.75383
G1 X149.364 Y152.787 E227.83759
G1 X148.524 Y152.852 E227.91721
G1 X74.476 Y152.853 E234.91474
G1 X73.606 Y152.783 E234.99722
G1 X72.49 Y152.561 E235.10475
G1 X71.87 Y152.339 E235.16698
G1 X71.072 Y151.942 E235.25121
G1 X70.508 Y151.602 E235.31345
G1 X69.989 Y151.197 E235.37566
G1 X69.387 Y150.605 E235.45545
G1 X68.954 Y150.109 E235.51766
G1 X68.585 Y149.564 E235.57986
G1 X68.189 Y148.802 E235.66101
G1 X67.932 Y148.196 E235.72322
G1 X67.749 Y147.564 E235.7854
G1 X67.613 Y146.765 E235.86199
G1 X67.548 Y145.927 E235.94142
G1 X67.547 Y85.326 E241.66821
G1 X67.615 Y84.47 E241.74936
G1 X67.832 Y83.364 E241.85587
G1 X68.052 Y82.743 E241.91813
G1 X68.417 Y81.995 E241.99678
G1 X68.75 Y81.426 E242.05908
G1 X69.149 Y80.902 E242.12132
G1 X69.73 Y80.297 E242.20059
G1 X70.221 Y79.858 E242.26283
G0 F4500 X70.455 Y80.12
G1 F1800 X70.98 Y79.759 E242.32304
G1 X71.69 Y79.382 E242.399
G1 X72.273 Y79.127 E242.45914
G1 X72.884 Y78.947 E242.51933
G1 X73.691 Y78.809 E242.5967
