; generated by Slic3r 1.34.1-prusa3d-win64 on 2017-07-10 at 20:55:56

; external perimeters extrusion width = 0.40mm
; perimeters extrusion width = 0.48mm
; infill extrusion width = 0.48mm
; solid infill extrusion width = 0.48mm
; top infill extrusion width = 0.48mm

M107
M190 S60 ; set bed temperature and wait for it to be reached
M104 S240 ; set temperature
G1 Z5; lift nozzle
G28 Y0 ; home Y axis
G1 Y25 ; Move away from Y
G28 X0 ; home X axis
G1 X25 ; Move away from X
G28 Z0 ; Home Z axis
G1 Z5; lift nozzle
M109 S240 ; set temperature and wait for it to be reached
G21 ; set units to millimeters
G90 ; use absolute coordinates
M82 ; use absolute distances for extrusion
G92 E0
G1 E-1.00000 F120.00000
G92 E0
G1 Z0.300 F7800.000
G1 X77.585 Y79.020 F7800.000
G1 E1.00000 F120.00000
G1 F1080
G1 X78.100 Y78.215 E1.06386
G1 X78.491 Y77.875 E1.09844
G1 X78.944 Y77.617 E1.13329
G1 X79.436 Y77.455 E1.16788
G1 X79.950 Y77.394 E1.20246
G1 X120.004 Y77.393 E3.87830
G1 X120.973 Y77.582 E3.94425
G1 X121.805 Y78.120 E4.01046
G1 X122.375 Y78.926 E4.07641
G1 X122.605 Y79.890 E4.14263
G1 X122.606 Y120.044 E6.82512
G1 X122.415 Y120.980 E6.88898
G1 X121.900 Y121.785 E6.95283
G1 X121.500 Y122.132 E6.98822
G1 X121.038 Y122.391 E7.02360
G1 X120.533 Y122.552 E7.05898
G1 X120.006 Y122.607 E7.09436
G1 X79.956 Y122.606 E9.76992
G1 X79.020 Y122.415 E9.83378
G1 X78.215 Y121.900 E9.89764
G1 X77.868 Y121.500 E9.93302
G1 X77.609 Y121.038 E9.96840
G1 X77.448 Y120.533 E10.00378
G1 X77.393 Y120.006 E10.03916
G1 X77.394 Y79.956 E12.71472
G1 X77.573 Y79.078 E12.77457
G1 X79.167 Y78.104 F7800.000
G1 F1080
G1 X79.968 Y77.929 E12.82932
G1 X120.004 Y77.929 E15.50392
G1 X120.777 Y78.080 E15.55657
G1 X121.440 Y78.512 E15.60945
G1 X121.894 Y79.161 E15.66233
G1 X122.070 Y79.929 E15.71497
G1 X122.071 Y120.028 E18.39385
G1 X121.919 Y120.780 E18.44510
G1 X121.501 Y121.428 E18.49658
G1 X120.820 Y121.902 E18.55202
G1 X120.004 Y122.071 E18.60769
G1 X79.972 Y122.071 E21.28206
G1 X79.220 Y121.919 E21.33330
G1 X78.572 Y121.501 E21.38478
G1 X78.098 Y120.820 E21.44023
G1 X77.929 Y120.004 E21.49590
G1 X77.929 Y79.972 E24.17027
G1 X78.081 Y79.220 E24.22151
G1 X78.499 Y78.572 E24.27299
G1 X79.118 Y78.138 E24.32349
G1 X79.390 Y78.591 F7800.000
G1 F1080
G1 X79.982 Y78.464 E24.36393
G1 X120.003 Y78.464 E27.03756
G1 X120.579 Y78.578 E27.07679
G1 X121.073 Y78.901 E27.11622
G1 X121.408 Y79.387 E27.15565
G1 X121.535 Y79.961 E27.19488
G1 X121.536 Y120.015 E29.87075
G1 X121.421 Y120.582 E29.90938
G1 X121.105 Y121.066 E29.94801
G1 X120.602 Y121.413 E29.98884
G1 X120.003 Y121.536 E30.02968
G1 X79.985 Y121.536 E32.70310
G1 X79.418 Y121.421 E32.74173
G1 X78.934 Y121.105 E32.78036
G1 X78.587 Y120.602 E32.82119
G1 X78.464 Y120.003 E32.86203
G1 X78.464 Y79.985 E35.53545
G1 X78.579 Y79.418 E35.57408
G1 X78.895 Y78.934 E35.61271
G1 X79.341 Y78.625 E35.64893
G1 E34.64893 F120.00000
G92 E0
G1 X119.700 Y119.700 F7800.000
G1 E1.00000 F120.00000
G1 F378
G1 X80.300 Y119.700 E3.63213
G1 X80.300 Y80.300 E6.26427
G1 X119.700 Y80.300 E8.89640
G1 X119.700 Y119.640 E11.52452
G1 X119.314 Y119.596 F7800.000
G1 X119.164 Y119.164 F7800.000
G1 F540
G1 X80.836 Y119.164 E14.08509
G1 X80.836 Y80.836 E16.64566
G1 X119.164 Y80.836 E19.20623
G1 X119.164 Y119.104 E21.76279
G1 X118.629 Y118.629 F7800.000
G1 F540
G1 X81.371 Y118.629 E24.25179
G1 X81.371 Y81.371 E26.74080
G1 X118.629 Y81.371 E29.22980
G1 X118.629 Y118.569 E31.71480
G1 E30.71480 F120.00000
G92 E0
G1 X102.928 Y103.149 F7800.000
G1 E1.00000 F120.00000
G1 F540
G1 X102.418 Y103.556 E1.04362
G1 X101.866 Y103.875 E1.08619
G1 X101.273 Y104.108 E1.12876
G1 X100.951 Y104.194 E1.15099
G1 X100.321 Y104.289 E1.19356
G1 X99.684 Y104.289 E1.23612
G1 X99.042 Y104.192 E1.27951
G1 X98.694 Y104.096 E1.30361
G1 X98.139 Y103.877 E1.34350
G1 X97.573 Y103.550 E1.38717
G1 X97.079 Y103.156 E1.42936
G1 X96.846 Y102.923 E1.45138
G1 X96.581 Y102.605 E1.47901
G1 X96.278 Y102.154 E1.51532
G1 X95.996 Y101.569 E1.55874
G1 X95.866 Y101.176 E1.58637
G1 X95.748 Y100.646 E1.62267
G1 X95.711 Y100.316 E1.64485
G1 X95.711 Y99.684 E1.68704
G1 X95.808 Y99.041 E1.73051
G1 X95.922 Y98.643 E1.75814
G1 X96.123 Y98.138 E1.79445
G1 X96.279 Y97.845 E1.81662
G1 X96.634 Y97.323 E1.85881
G1 X97.077 Y96.846 E1.90229
G1 X97.395 Y96.581 E1.92992
G1 X97.846 Y96.278 E1.96623
G1 X98.139 Y96.123 E1.98840
G1 X98.727 Y95.892 E2.03059
G1 X99.362 Y95.747 E2.07407
G1 X99.773 Y95.708 E2.10170
G1 X100.317 Y95.711 E2.13800
G1 X100.643 Y95.748 E2.15997
G1 X101.048 Y95.832 E2.18760
G1 X101.569 Y95.996 E2.22407
G1 X101.950 Y96.170 E2.25201
G1 X102.423 Y96.447 E2.28870
G1 X102.921 Y96.844 E2.33120
G1 X103.154 Y97.077 E2.35323
G1 X103.419 Y97.395 E2.38086
G1 X103.722 Y97.846 E2.41716
G1 X104.004 Y98.431 E2.46058
G1 X104.134 Y98.824 E2.48821
G1 X104.252 Y99.354 E2.52452
G1 X104.289 Y99.684 E2.54669
G1 X104.289 Y100.321 E2.58925
G1 X104.194 Y100.951 E2.63182
G1 X104.109 Y101.269 E2.65375
G1 X103.987 Y101.608 E2.67785
G1 X103.727 Y102.146 E2.71775
G1 X103.552 Y102.425 E2.73975
G1 X103.301 Y102.753 E2.76738
G1 X102.970 Y103.105 E2.79968
G1 X103.013 Y103.540 F7800.000
G1 X103.319 Y103.516 F7800.000
G1 F540
G1 X103.015 Y103.781 E2.82660
G1 X102.712 Y104.005 E2.85181
G1 X102.099 Y104.359 E2.89906
G1 X101.441 Y104.617 E2.94632
G1 X101.061 Y104.719 E2.97257
G1 X100.362 Y104.824 E3.01983
G1 X99.654 Y104.824 E3.06709
G1 X99.279 Y104.782 E3.09230
G1 X98.921 Y104.714 E3.11667
G1 X98.524 Y104.605 E3.14415
G1 X97.915 Y104.364 E3.18793
G1 X97.582 Y104.188 E3.21308
G1 X97.262 Y103.988 E3.23828
G1 X96.722 Y103.556 E3.28449
G1 X96.450 Y103.285 E3.31016
G1 X96.152 Y102.927 E3.34125
G1 X95.818 Y102.430 E3.38128
G1 X95.643 Y102.098 E3.40631
G1 X95.495 Y101.760 E3.43094
G1 X95.349 Y101.319 E3.46203
G1 X95.219 Y100.734 E3.50206
G1 X95.176 Y100.346 E3.52814
G1 X95.176 Y99.654 E3.57434
G1 X95.218 Y99.279 E3.59955
G1 X95.286 Y98.917 E3.62418
G1 X95.414 Y98.470 E3.65527
G1 X95.637 Y97.913 E3.69530
G1 X95.819 Y97.568 E3.72137
G1 X96.209 Y96.997 E3.76758
G1 X96.455 Y96.711 E3.79279
G1 X96.715 Y96.450 E3.81742
G1 X97.073 Y96.152 E3.84851
G1 X97.570 Y95.818 E3.88853
G1 X97.915 Y95.635 E3.91461
G1 X98.559 Y95.383 E3.96082
G1 X98.924 Y95.285 E3.98603
G1 X99.286 Y95.217 E4.01065
G1 X99.749 Y95.172 E4.04174
G1 X100.348 Y95.176 E4.08177
G1 X100.728 Y95.219 E4.10727
G1 X101.183 Y95.313 E4.13836
G1 X101.762 Y95.495 E4.17885
G1 X102.197 Y95.694 E4.21081
G1 X102.727 Y96.004 E4.25189
G1 X103.278 Y96.444 E4.29897
G1 X103.550 Y96.715 E4.32464
G1 X103.848 Y97.073 E4.35573
G1 X104.182 Y97.570 E4.39576
G1 X104.357 Y97.902 E4.42079
G1 X104.505 Y98.240 E4.44542
G1 X104.651 Y98.681 E4.47651
G1 X104.781 Y99.266 E4.51654
G1 X104.824 Y99.654 E4.54262
G1 X104.824 Y100.362 E4.58987
G1 X104.719 Y101.061 E4.63713
G1 X104.621 Y101.429 E4.66255
G1 X104.482 Y101.816 E4.69003
G1 X104.196 Y102.406 E4.73381
G1 X103.992 Y102.730 E4.75942
G1 X103.710 Y103.100 E4.79051
G1 X103.360 Y103.472 E4.82463
G1 X103.709 Y103.883 F7800.000
G1 F540
G1 X103.350 Y104.200 E4.85668
G1 X103.006 Y104.454 E4.88523
G1 X102.332 Y104.843 E4.93718
G1 X101.608 Y105.127 E4.98913
G1 X101.171 Y105.244 E5.01940
G1 X100.402 Y105.360 E5.07135
G1 X99.624 Y105.360 E5.12330
G1 X99.199 Y105.312 E5.15186
G1 X98.800 Y105.237 E5.17904
G1 X98.354 Y105.114 E5.20991
G1 X97.690 Y104.851 E5.25757
G1 X97.314 Y104.652 E5.28603
G1 X96.952 Y104.425 E5.31458
G1 X96.364 Y103.956 E5.36481
G1 X96.054 Y103.646 E5.39413
G1 X95.723 Y103.248 E5.42868
G1 X95.358 Y102.705 E5.47243
G1 X95.160 Y102.331 E5.50070
G1 X94.995 Y101.952 E5.52830
G1 X94.832 Y101.461 E5.56285
G1 X94.690 Y100.822 E5.60660
G1 X94.640 Y100.376 E5.63658
G1 X94.640 Y99.624 E5.68681
G1 X94.688 Y99.199 E5.71537
G1 X94.765 Y98.793 E5.74297
G1 X94.907 Y98.296 E5.77752
G1 X95.150 Y97.688 E5.82127
G1 X95.360 Y97.291 E5.85125
G1 X95.783 Y96.670 E5.90148
G1 X96.062 Y96.346 E5.93003
G1 X96.354 Y96.054 E5.95764
G1 X96.752 Y95.723 E5.99219
G1 X97.295 Y95.358 E6.03594
G1 X97.692 Y95.148 E6.06592
G1 X98.392 Y94.873 E6.11615
G1 X98.805 Y94.762 E6.14470
G1 X99.211 Y94.686 E6.17231
G1 X99.725 Y94.636 E6.20686
G1 X100.380 Y94.640 E6.25060
G1 X100.812 Y94.689 E6.27964
G1 X101.319 Y94.794 E6.31419
G1 X101.954 Y94.994 E6.35870
G1 X102.444 Y95.218 E6.39468
G1 X103.031 Y95.562 E6.44015
G1 X103.636 Y96.044 E6.49181
G1 X103.946 Y96.354 E6.52113
G1 X104.277 Y96.752 E6.55567
G1 X104.642 Y97.295 E6.59942
G1 X104.840 Y97.669 E6.62769
G1 X105.005 Y98.048 E6.65529
G1 X105.168 Y98.539 E6.68984
G1 X105.310 Y99.178 E6.73359
G1 X105.360 Y99.624 E6.76358
G1 X105.360 Y100.402 E6.81553
G1 X105.244 Y101.171 E6.86748
G1 X105.132 Y101.588 E6.89637
G1 X104.976 Y102.023 E6.92725
G1 X104.665 Y102.666 E6.97491
G1 X104.433 Y103.036 E7.00413
G1 X104.119 Y103.447 E7.03868
G1 X103.750 Y103.839 E7.07462
G1 E6.07462 F120.00000
G92 E0
G1 X100.193 Y105.815 F7800.000
G1 E1.00000 F120.00000
G1 F1080
G1 X99.564 Y105.815 E1.04198
G1 X99.031 Y105.758 E1.07778
G1 X98.506 Y105.653 E1.11358
G1 X97.992 Y105.500 E1.14938
G1 X97.495 Y105.300 E1.18517
G1 X97.018 Y105.056 E1.22097
G1 X96.565 Y104.770 E1.25677
G1 X96.140 Y104.443 E1.29256
G1 X95.747 Y104.080 E1.32836
G1 X95.388 Y103.682 E1.36416
G1 X95.067 Y103.253 E1.39996
G1 X94.786 Y102.797 E1.43575
G1 X94.547 Y102.317 E1.47155
G1 X94.353 Y101.817 E1.50735
G1 X94.205 Y101.302 E1.54314
G1 X94.103 Y100.776 E1.57894
G1 X94.050 Y100.243 E1.61474
G1 X94.044 Y99.707 E1.65054
G1 X94.087 Y99.173 E1.68633
G1 X94.177 Y98.645 E1.72213
G1 X94.315 Y98.127 E1.75793
G1 X94.498 Y97.623 E1.79372
G1 X94.725 Y97.138 E1.82952
G1 X94.995 Y96.675 E1.86532
G1 X95.305 Y96.238 E1.90111
G1 X95.652 Y95.830 E1.93691
G1 X96.035 Y95.455 E1.97271
G1 X96.449 Y95.115 E2.00850
G1 X96.892 Y94.813 E2.04430
G1 X97.360 Y94.552 E2.08009
G1 X97.849 Y94.333 E2.11589
G1 X98.355 Y94.158 E2.15169
G1 X98.875 Y94.028 E2.18748
G1 X99.404 Y93.945 E2.22328
G1 X99.939 Y93.908 E2.25908
G1 X100.475 Y93.919 E2.29487
G1 X101.007 Y93.977 E2.33067
G1 X101.533 Y94.081 E2.36646
G1 X102.047 Y94.231 E2.40226
G1 X102.547 Y94.425 E2.43806
G1 X103.027 Y94.662 E2.47385
G1 X103.485 Y94.940 E2.50965
G1 X103.917 Y95.257 E2.54545
G1 X104.320 Y95.610 E2.58124
G1 X104.691 Y95.997 E2.61704
G1 X105.026 Y96.415 E2.65283
G1 X105.324 Y96.860 E2.68863
G1 X105.583 Y97.330 E2.72442
G1 X105.800 Y97.820 E2.76022
G1 X105.973 Y98.327 E2.79602
G1 X106.103 Y98.847 E2.83181
G1 X106.187 Y99.376 E2.86761
G1 X106.225 Y99.910 E2.90340
G1 X106.217 Y100.446 E2.93920
G1 X106.163 Y100.979 E2.97499
G1 X106.063 Y101.506 E3.01079
G1 X105.919 Y102.022 E3.04659
G1 X105.731 Y102.523 E3.08238
G1 X105.501 Y103.007 E3.11818
G1 X105.230 Y103.470 E3.15397
G1 X104.921 Y103.907 E3.18977
G1 X104.576 Y104.317 E3.22556
G1 X104.197 Y104.696 E3.26136
G1 X103.787 Y105.041 E3.29715
G1 X103.350 Y105.351 E3.33295
G1 X102.888 Y105.622 E3.36874
G1 X102.404 Y105.853 E3.40454
G1 X101.903 Y106.042 E3.44033
G1 X101.387 Y106.188 E3.47613
G1 X100.861 Y106.290 E3.51192
G1 X100.329 Y106.348 E3.54772
G1 X99.793 Y106.360 E3.58352
G1 X99.258 Y106.327 E3.61931
G1 X98.728 Y106.249 E3.65511
G1 X98.206 Y106.128 E3.69090
G1 X97.697 Y105.962 E3.72670
G1 X97.202 Y105.755 E3.76249
G1 X96.727 Y105.507 E3.79829
G1 X96.275 Y105.220 E3.83408
G1 X95.848 Y104.897 E3.86987
G1 X95.449 Y104.539 E3.90567
G1 X95.082 Y104.149 E3.94146
G1 X94.748 Y103.730 E3.97726
G1 X94.450 Y103.284 E4.01305
G1 X94.190 Y102.816 E4.04885
G1 X93.970 Y102.327 E4.08464
G1 X93.792 Y101.822 E4.12044
G1 X93.655 Y101.304 E4.15623
G1 X93.562 Y100.776 E4.19203
G1 X93.513 Y100.243 E4.22782
G1 X93.508 Y99.707 E4.26362
G1 X93.548 Y99.172 E4.29941
G1 X93.631 Y98.643 E4.33521
G1 X93.757 Y98.122 E4.37100
G1 X93.926 Y97.614 E4.40679
G1 X94.135 Y97.121 E4.44259
G1 X94.385 Y96.647 E4.47838
G1 X94.672 Y96.194 E4.51418
G1 X94.996 Y95.767 E4.54997
G1 X95.353 Y95.368 E4.58577
G1 X95.742 Y94.999 E4.62156
G1 X96.159 Y94.663 E4.65735
G1 X96.603 Y94.363 E4.69315
G1 X97.069 Y94.099 E4.72894
G1 X97.555 Y93.874 E4.76474
G1 X98.058 Y93.689 E4.80053
G1 X98.574 Y93.546 E4.83633
G1 X99.101 Y93.445 E4.87212
G1 X99.633 Y93.387 E4.90791
G1 X100.169 Y93.372 E4.94371
G1 X100.704 Y93.400 E4.97950
G1 X101.235 Y93.472 E5.01530
G1 X101.758 Y93.586 E5.05109
G1 X102.271 Y93.741 E5.08688
G1 X102.770 Y93.938 E5.12268
G1 X103.251 Y94.174 E5.15847
G1 X103.711 Y94.448 E5.19427
G1 X104.148 Y94.757 E5.23006
G1 X104.559 Y95.101 E5.26585
G1 X104.941 Y95.477 E5.30165
G1 X105.292 Y95.882 E5.33744
G1 X105.610 Y96.313 E5.37323
G1 X105.892 Y96.769 E5.40903
G1 X106.136 Y97.246 E5.44482
G1 X106.342 Y97.740 E5.48062
G1 X106.509 Y98.250 E5.51641
G1 X106.634 Y98.771 E5.55220
G1 X106.717 Y99.300 E5.58800
G1 X106.758 Y99.834 E5.62379
G1 X106.757 Y100.370 E5.65958
G1 X106.713 Y100.904 E5.69538
G1 X106.627 Y101.433 E5.73117
G1 X106.500 Y101.953 E5.76696
G1 X106.332 Y102.462 E5.80276
G1 X106.125 Y102.956 E5.83855
G1 X105.879 Y103.432 E5.87435
G1 X105.596 Y103.887 E5.91014
G1 X105.279 Y104.319 E5.94593
G1 X104.929 Y104.724 E5.98173
G1 X104.548 Y105.101 E6.01752
G1 X104.138 Y105.447 E6.05331
G1 X103.703 Y105.760 E6.08911
G1 X103.245 Y106.037 E6.12490
G1 X102.767 Y106.278 E6.16069
G1 X102.271 Y106.481 E6.19649
G1 X101.761 Y106.645 E6.23228
G1 X101.239 Y106.768 E6.26807
G1 X100.710 Y106.851 E6.30387
G1 X100.176 Y106.892 E6.33966
G1 X99.640 Y106.891 E6.37545
G1 X99.106 Y106.849 E6.41124
G1 X98.576 Y106.766 E6.44704
G1 X98.055 Y106.641 E6.48283
G1 X97.545 Y106.477 E6.51862
G1 X97.049 Y106.274 E6.55442
G1 X96.571 Y106.034 E6.59021
G1 X96.112 Y105.757 E6.62600
G1 X95.676 Y105.445 E6.66180
G1 X95.265 Y105.101 E6.69759
G1 X94.882 Y104.727 E6.73338
G1 X94.529 Y104.324 E6.76918
G1 X94.208 Y103.895 E6.80497
G1 X93.921 Y103.442 E6.84076
G1 X93.669 Y102.969 E6.87655
G1 X93.454 Y102.479 E6.91235
G1 X93.278 Y101.973 E6.94814
G1 X93.140 Y101.455 E6.98393
G1 X93.043 Y100.928 E7.01973
G1 X92.986 Y100.395 E7.05552
G1 X92.970 Y99.860 E7.09131
G1 X92.994 Y99.325 E7.12710
G1 X93.060 Y98.793 E7.16290
G1 X93.165 Y98.268 E7.19869
G1 X93.310 Y97.752 E7.23448
G1 X93.494 Y97.248 E7.27027
G1 X93.715 Y96.761 E7.30607
G1 X93.973 Y96.291 E7.34186
G1 X94.265 Y95.842 E7.37765
G1 X94.591 Y95.416 E7.41344
G1 X94.948 Y95.017 E7.44924
G1 X95.334 Y94.645 E7.48503
G1 X95.746 Y94.304 E7.52082
G1 X96.184 Y93.994 E7.55661
G1 X96.643 Y93.719 E7.59241
G1 X97.122 Y93.478 E7.62820
G1 X97.618 Y93.275 E7.66399
G1 X98.127 Y93.109 E7.69978
G1 X98.648 Y92.981 E7.73558
G1 X99.176 Y92.894 E7.77137
G1 X99.710 Y92.845 E7.80716
G1 X100.245 Y92.837 E7.84295
G1 X100.780 Y92.869 E7.87875
G1 X101.311 Y92.941 E7.91454
G1 X101.835 Y93.052 E7.95033
G1 X102.350 Y93.202 E7.98612
G1 X102.851 Y93.390 E8.02192
G1 X103.338 Y93.615 E8.05771
G1 X103.806 Y93.875 E8.09350
G1 X104.254 Y94.169 E8.12929
G1 X104.679 Y94.496 E8.16508
G1 X105.078 Y94.853 E8.20088
G1 X105.450 Y95.239 E8.23667
G1 X105.792 Y95.651 E8.27246
G1 X106.103 Y96.087 E8.30825
G1 X106.380 Y96.546 E8.34405
G1 X106.624 Y97.023 E8.37984
G1 X106.831 Y97.517 E8.41563
G1 X107.001 Y98.025 E8.45142
G1 X107.134 Y98.544 E8.48721
G1 X107.228 Y99.072 E8.52301
G1 X107.282 Y99.605 E8.55880
G1 X107.298 Y100.140 E8.59459
G1 X107.274 Y100.675 E8.63038
G1 X107.212 Y101.207 E8.66617
G1 X107.110 Y101.733 E8.70197
G1 X106.970 Y102.251 E8.73776
G1 X106.793 Y102.756 E8.77355
G1 X106.579 Y103.248 E8.80934
G1 X106.330 Y103.722 E8.84513
G1 X106.047 Y104.177 E8.88093
G1 X105.732 Y104.610 E8.91672
G1 X105.386 Y105.019 E8.95251
G1 X105.011 Y105.402 E8.98830
G1 X104.609 Y105.756 E9.02409
G1 X104.183 Y106.081 E9.05988
G1 X103.734 Y106.373 E9.09568
G1 X103.265 Y106.633 E9.13147
G1 X102.779 Y106.857 E9.16726
G1 X102.277 Y107.046 E9.20305
G1 X101.764 Y107.198 E9.23884
G1 X101.240 Y107.313 E9.27463
G1 X100.710 Y107.390 E9.31043
G1 X100.176 Y107.428 E9.34622
G1 X99.640 Y107.427 E9.38201
G1 X99.106 Y107.388 E9.41780
G1 X98.575 Y107.311 E9.45359
G1 X98.052 Y107.195 E9.48938
G1 X97.539 Y107.043 E9.52518
G1 X97.037 Y106.854 E9.56097
G1 X96.551 Y106.629 E9.59676
G1 X96.082 Y106.370 E9.63255
G1 X95.632 Y106.078 E9.66834
G1 X95.205 Y105.755 E9.70413
G1 X94.802 Y105.402 E9.73993
G1 X94.425 Y105.022 E9.77572
G1 X94.076 Y104.615 E9.81151
G1 X93.757 Y104.184 E9.84730
G1 X93.470 Y103.732 E9.88309
G1 X93.216 Y103.261 E9.91888
