;FLAVOR:UltiGCode
;TIME:1717
;MATERIAL:4630
;MATERIAL2:0
;NOZZLE_DIAMETER:0.4
;MINX:47.201
;MINY:48.737
;MINZ:0.27
;MAXX:198.901
;MAXY:200.437
;MAXZ:1.47
;Generated with Cura_SteamEngine 4.4.0
M82 ;absolute extrusion mode

G92 E0
G92 E0
G10
;LAYER_COUNT:5
;LAYER:0
M107
G0 F4320 X49.611 Y54.044 Z0.27
;TYPE:SKIRT
G11
G1 F1800 X50.199 Y53.511 E0.075
G1 X50.838 Y53.041 E0.14996
G1 X51.522 Y52.638 E0.22498
G1 X52.242 Y52.305 E0.29995
G1 X52.992 Y52.047 E0.3749
G1 X53.765 Y51.865 E0.44994
G1 X54.551 Y51.762 E0.52485
G1 X55.179 Y51.737 E0.58425
G1 X78.102 Y51.737 E2.75047
G1 X78.201 Y51.608 E2.76584
G1 X78.628 Y51.147 E2.82522
G1 X78.731 Y51.044 E2.83898
G1 X79.319 Y50.511 E2.91398
G1 X79.958 Y50.041 E2.98894
G1 X80.642 Y49.638 E3.06396
G1 X81.362 Y49.305 E3.13893
G1 X82.112 Y49.047 E3.21388
G1 X82.885 Y48.865 E3.28893
G1 X83.671 Y48.762 E3.36384
G1 X84.299 Y48.737 E3.42323
G1 X110.163 Y48.737 E5.86738
G1 X110.955 Y48.777 E5.94232
G1 X111.74 Y48.896 E6.01735
G1 X112.508 Y49.094 E6.0923
G1 X113.253 Y49.369 E6.16734
G1 X113.966 Y49.716 E6.24228
G1 X114.641 Y50.134 E6.31731
G1 X115.27 Y50.617 E6.39225
G1 X115.731 Y51.044 E6.45163
G1 X115.834 Y51.147 E6.4654
G1 X116.367 Y51.735 E6.54039
G1 X116.368 Y51.737 E6.5406
G1 X130.042 Y51.737 E7.8328
G1 X130.141 Y51.608 E7.84816
G1 X130.568 Y51.147 E7.90754
G1 X130.671 Y51.044 E7.92131
G1 X131.259 Y50.511 E7.99631
G1 X131.898 Y50.041 E8.07127
G1 X132.582 Y49.638 E8.14629
G1 X133.302 Y49.305 E8.22126
G1 X134.052 Y49.047 E8.29621
G1 X134.825 Y48.865 E8.37125
G1 X135.611 Y48.762 E8.44616
G1 X136.239 Y48.737 E8.50556
G1 X162.103 Y48.737 E10.94971
G1 X162.895 Y48.777 E11.02464
G1 X163.68 Y48.896 E11.09967
G1 X164.448 Y49.094 E11.17462
G1 X165.193 Y49.369 E11.24967
G1 X165.906 Y49.716 E11.3246
G1 X166.581 Y50.134 E11.39963
G1 X167.21 Y50.617 E11.47458
G1 X167.671 Y51.044 E11.53396
G1 X167.774 Y51.147 E11.54772
G1 X168.307 Y51.735 E11.62272
G1 X168.308 Y51.737 E11.62293
G1 X187.923 Y51.737 E13.47655
G1 X188.715 Y51.777 E13.55149
G1 X189.5 Y51.896 E13.62652
G1 X190.268 Y52.094 E13.70147
G1 X191.013 Y52.369 E13.77651
G1 X191.726 Y52.716 E13.85145
G1 X192.401 Y53.134 E13.92647
G1 X193.03 Y53.617 E14.00142
G1 X193.491 Y54.044 E14.0608
G1 X193.594 Y54.147 E14.07456
G1 X194.127 Y54.735 E14.14956
G1 X194.597 Y55.374 E14.22452
G1 X195 Y56.058 E14.29954
G1 X195.333 Y56.778 E14.37451
G1 X195.591 Y57.528 E14.44946
G1 X195.773 Y58.301 E14.52451
G1 X195.876 Y59.087 E14.59942
G1 X195.901 Y59.715 E14.65881
G1 X195.901 Y79.338 E16.51318
G1 X196.03 Y79.437 E16.52855
G1 X196.491 Y79.864 E16.58793
G1 X196.594 Y79.967 E16.6017
G1 X197.127 Y80.555 E16.67669
G1 X197.597 Y81.194 E16.75166
G1 X198 Y81.878 E16.82668
G1 X198.333 Y82.598 E16.90164
G1 X198.591 Y83.348 E16.97659
G1 X198.773 Y84.121 E17.05164
G1 X198.876 Y84.907 E17.12655
G1 X198.901 Y85.535 E17.18595
G1 X198.901 Y111.399 E19.63009
G1 X198.861 Y112.191 E19.70503
G1 X198.742 Y112.976 E19.78006
G1 X198.544 Y113.744 E19.85501
G1 X198.269 Y114.489 E19.93006
G1 X197.922 Y115.202 E20.00499
G1 X197.504 Y115.877 E20.08002
G1 X197.021 Y116.506 E20.15496
G1 X196.594 Y116.967 E20.21434
G1 X196.491 Y117.07 E20.22811
G1 X195.903 Y117.603 E20.30311
G1 X195.901 Y117.604 E20.30332
G1 X195.901 Y131.278 E21.59551
G1 X196.03 Y131.377 E21.61088
G1 X196.491 Y131.804 E21.67026
G1 X196.594 Y131.907 E21.68402
G1 X197.127 Y132.495 E21.75902
G1 X197.597 Y133.134 E21.83398
G1 X198 Y133.818 E21.909
G1 X198.333 Y134.538 E21.98397
G1 X198.591 Y135.288 E22.05892
G1 X198.773 Y136.061 E22.13397
G1 X198.876 Y136.847 E22.20888
G1 X198.901 Y137.475 E22.26827
G1 X198.901 Y163.339 E24.71242
G1 X198.861 Y164.131 E24.78736
G1 X198.742 Y164.916 E24.86239
G1 X198.544 Y165.684 E24.93734
G1 X198.269 Y166.429 E25.01238
G1 X197.922 Y167.142 E25.08732
G1 X197.504 Y167.817 E25.16235
G1 X197.021 Y168.446 E25.23729
G1 X196.594 Y168.907 E25.29667
G1 X196.491 Y169.01 E25.31044
G1 X195.903 Y169.543 E25.38543
G1 X195.901 Y169.544 E25.38564
G1 X195.901 Y192.459 E27.55111
G1 X195.861 Y193.251 E27.62605
G1 X195.742 Y194.036 E27.70108
G1 X195.544 Y194.804 E27.77603
G1 X195.269 Y195.549 E27.85108
G1 X194.922 Y196.262 E27.92601
G1 X194.504 Y196.937 E28.00104
G1 X194.021 Y197.566 E28.07598
G1 X193.594 Y198.027 E28.13536
G1 X193.491 Y198.13 E28.14913
G1 X192.903 Y198.663 E28.22412
G1 X192.264 Y199.133 E28.29908
G1 X191.58 Y199.536 E28.37411
G1 X190.86 Y199.869 E28.44907
G1 X190.11 Y200.127 E28.52402
G1 X189.337 Y200.309 E28.59907
G1 X188.551 Y200.412 E28.67398
G1 X187.923 Y200.437 E28.73337
G1 X162.059 Y200.437 E31.17752
G1 X161.267 Y200.397 E31.25246
G1 X160.482 Y200.278 E31.32749
G1 X159.714 Y200.08 E31.40244
G1 X158.969 Y199.805 E31.47749
G1 X158.256 Y199.458 E31.55242
G1 X157.581 Y199.04 E31.62745
G1 X156.952 Y198.557 E31.70239
G1 X156.491 Y198.13 E31.76177
G1 X156.388 Y198.027 E31.77554
G1 X155.855 Y197.439 E31.85054
G1 X155.854 Y197.437 E31.85075
G1 X142.18 Y197.437 E33.14294
G1 X142.081 Y197.566 E33.15831
G1 X141.654 Y198.027 E33.21769
G1 X141.551 Y198.13 E33.23145
G1 X140.963 Y198.663 E33.30645
G1 X140.324 Y199.133 E33.38141
G1 X139.64 Y199.536 E33.45643
G1 X138.92 Y199.869 E33.5314
G1 X138.17 Y200.127 E33.60635
G1 X137.397 Y200.309 E33.6814
G1 X136.611 Y200.412 E33.75631
G1 X135.983 Y200.437 E33.8157
G1 X110.119 Y200.437 E36.25985
G1 X109.327 Y200.397 E36.33479
G1 X108.542 Y200.278 E36.40982
G1 X107.774 Y200.08 E36.48477
G1 X107.029 Y199.805 E36.55981
G1 X106.316 Y199.458 E36.63475
G1 X105.641 Y199.04 E36.70978
G1 X105.012 Y198.557 E36.78472
G1 X104.551 Y198.13 E36.8441
G1 X104.448 Y198.027 E36.85786
G1 X103.915 Y197.439 E36.93286
G1 X103.914 Y197.437 E36.93307
G1 X90.24 Y197.437 E38.22527
G1 X90.141 Y197.566 E38.24063
G1 X89.714 Y198.027 E38.30001
G1 X89.611 Y198.13 E38.31378
G1 X89.023 Y198.663 E38.38878
G1 X88.384 Y199.133 E38.46374
G1 X87.7 Y199.536 E38.53876
G1 X86.98 Y199.869 E38.61372
G1 X86.23 Y200.127 E38.68868
G1 X85.457 Y200.309 E38.76372
G1 X84.671 Y200.412 E38.83863
G1 X84.043 Y200.437 E38.89803
G1 X58.179 Y200.437 E41.34217
G1 X57.387 Y200.397 E41.41711
G1 X56.602 Y200.278 E41.49214
G1 X55.834 Y200.08 E41.56709
G1 X55.089 Y199.805 E41.64214
G1 X54.376 Y199.458 E41.71707
G1 X53.701 Y199.04 E41.7921
G1 X53.072 Y198.557 E41.86704
G1 X52.611 Y198.13 E41.92643
G1 X52.508 Y198.027 E41.94019
G1 X51.975 Y197.439 E42.01519
G1 X51.505 Y196.8 E42.09015
G1 X51.262 Y196.387 E42.13543
G1 X50.701 Y196.04 E42.19777
G1 X50.072 Y195.557 E42.27271
G1 X49.611 Y195.13 E42.33209
G1 X49.508 Y195.027 E42.34586
G1 X48.975 Y194.439 E42.42085
G1 X48.505 Y193.8 E42.49582
G1 X48.102 Y193.116 E42.57084
G1 X47.769 Y192.396 E42.6458
G1 X47.511 Y191.646 E42.72075
G1 X47.329 Y190.873 E42.7958
G1 X47.226 Y190.087 E42.87071
G1 X47.201 Y189.459 E42.9301
G1 X47.201 Y163.595 E45.37425
G1 X47.241 Y162.803 E45.44919
G1 X47.36 Y162.018 E45.52422
G1 X47.558 Y161.25 E45.59917
G1 X47.833 Y160.505 E45.67422
G1 X48.18 Y159.792 E45.74915
G1 X48.598 Y159.117 E45.82418
G1 X49.081 Y158.488 E45.89912
G1 X49.508 Y158.027 E45.9585
G1 X49.611 Y157.924 E45.97227
G1 X50.199 Y157.391 E46.04727
G1 X50.201 Y157.39 E46.04748
G1 X50.201 Y143.716 E47.33967
G1 X50.072 Y143.617 E47.35504
G1 X49.611 Y143.19 E47.41442
G1 X49.508 Y143.087 E47.42818
G1 X48.975 Y142.499 E47.50318
G1 X48.505 Y141.86 E47.57814
G1 X48.102 Y141.176 E47.65316
G1 X47.769 Y140.456 E47.72813
G1 X47.511 Y139.706 E47.80308
G1 X47.329 Y138.933 E47.87813
G1 X47.226 Y138.147 E47.95304
G1 X47.201 Y137.519 E48.01243
G1 X47.201 Y111.655 E50.45658
G1 X47.241 Y110.863 E50.53152
G1 X47.36 Y110.078 E50.60655
G1 X47.558 Y109.31 E50.6815
G1 X47.833 Y108.565 E50.75654
G1 X48.18 Y107.852 E50.83148
G1 X48.598 Y107.177 E50.90651
G1 X49.081 Y106.548 E50.98145
G1 X49.508 Y106.087 E51.04083
G1 X49.611 Y105.984 E51.05459
G1 X50.199 Y105.451 E51.12959
G1 X50.201 Y105.45 E51.1298
G1 X50.201 Y91.776 E52.422
G1 X50.072 Y91.677 E52.43736
G1 X49.611 Y91.25 E52.49674
G1 X49.508 Y91.147 E52.51051
G1 X48.975 Y90.559 E52.58551
G1 X48.505 Y89.92 E52.66047
G1 X48.102 Y89.236 E52.73549
G1 X47.769 Y88.516 E52.81045
G1 X47.511 Y87.766 E52.88541
G1 X47.329 Y86.993 E52.96045
G1 X47.226 Y86.207 E53.03536
G1 X47.201 Y85.579 E53.09476
G1 X47.201 Y59.715 E55.5389
G1 X47.241 Y58.923 E55.61384
G1 X47.36 Y58.138 E55.68887
G1 X47.558 Y57.37 E55.76382
G1 X47.833 Y56.625 E55.83887
G1 X48.18 Y55.912 E55.9138
G1 X48.598 Y55.237 E55.98883
G1 X49.081 Y54.608 E56.06377
G1 X49.508 Y54.147 E56.12316
G1 X49.611 Y54.044 E56.13692
G0 F4320 X49.858 Y54.291
G1 F1800 X50.434 Y53.772 E56.21019
G1 X51.06 Y53.314 E56.28349
G1 X51.731 Y52.924 E56.35683
G1 X52.437 Y52.604 E56.43008
G1 X53.173 Y52.359 E56.50339
G1 X53.931 Y52.191 E56.57675
G1 X54.701 Y52.102 E56.65
G1 X55.179 Y52.087 E56.6952
G1 X78.275 Y52.087 E58.87777
G1 X78.548 Y51.743 E58.91927
G1 X78.875 Y51.394 E58.96447
G1 X78.978 Y51.291 E58.97823
G1 X79.554 Y50.772 E59.0515
G1 X80.18 Y50.314 E59.1248
G1 X80.851 Y49.924 E59.19814
G1 X81.557 Y49.604 E59.27139
G1 X82.293 Y49.359 E59.3447
G1 X83.051 Y49.191 E59.41807
G1 X83.821 Y49.102 E59.49131
G1 X84.299 Y49.087 E59.53651
G1 X110.163 Y49.087 E61.98066
G1 X110.938 Y49.127 E62.05399
G1 X111.704 Y49.246 E62.12725
G1 X112.454 Y49.444 E62.20055
G1 X113.18 Y49.718 E62.27388
G1 X113.873 Y50.065 E62.34712
G1 X114.527 Y50.482 E62.42042
G1 X115.135 Y50.964 E62.49374
G1 X115.484 Y51.291 E62.53893
G1 X115.587 Y51.394 E62.5527
G1 X116.106 Y51.97 E62.62597
G1 X116.192 Y52.087 E62.63969
G1 X130.215 Y52.087 E63.96486
G1 X130.488 Y51.743 E64.00636
G1 X130.815 Y51.394 E64.05156
G1 X130.918 Y51.291 E64.06532
G1 X131.494 Y50.772 E64.13859
G1 X132.12 Y50.314 E64.21189
G1 X132.791 Y49.924 E64.28523
G1 X133.497 Y49.604 E64.35848
G1 X134.233 Y49.359 E64.43179
G1 X134.991 Y49.191 E64.50516
G1 X135.761 Y49.102 E64.57841
G1 X136.239 Y49.087 E64.6236
G1 X162.103 Y49.087 E67.06775
G1 X162.878 Y49.127 E67.14108
G1 X163.644 Y49.246 E67.21434
G1 X164.394 Y49.444 E67.28764
G1 X165.12 Y49.718 E67.36097
G1 X165.813 Y50.065 E67.43421
G1 X166.467 Y50.482 E67.50751
G1 X167.075 Y50.964 E67.58083
G1 X167.424 Y51.291 E67.62602
G1 X167.527 Y51.394 E67.63979
G1 X168.046 Y51.97 E67.71306
G1 X168.132 Y52.087 E67.72678
G1 X187.923 Y52.087 E69.59703
G1 X188.698 Y52.127 E69.67037
G1 X189.464 Y52.246 E69.74362
G1 X190.214 Y52.444 E69.81692
G1 X190.94 Y52.718 E69.89025
G1 X191.633 Y53.065 E69.96349
G1 X192.287 Y53.482 E70.03679
G1 X192.895 Y53.964 E70.11011
G1 X193.244 Y54.291 E70.15531
G1 X193.347 Y54.394 E70.16907
G1 X193.866 Y54.97 E70.24234
G1 X194.324 Y55.596 E70.31564
G1 X194.714 Y56.267 E70.38898
G1 X195.034 Y56.973 E70.46223
G1 X195.279 Y57.709 E70.53554
G1 X195.447 Y58.467 E70.60891
G1 X195.536 Y59.237 E70.68216
G1 X195.551 Y59.715 E70.72735
G1 X195.551 Y79.511 E72.59807
G1 X195.895 Y79.784 E72.63957
G1 X196.244 Y80.111 E72.68477
G1 X196.347 Y80.214 E72.69853
G1 X196.866 Y80.79 E72.7718
G1 X197.324 Y81.416 E72.8451
G1 X197.714 Y82.087 E72.91844
G1 X198.034 Y82.793 E72.99169
G1 X198.279 Y83.529 E73.065
G1 X198.447 Y84.287 E73.13837
G1 X198.536 Y85.057 E73.21162
G1 X198.551 Y85.535 E73.25681
G1 X198.551 Y111.399 E75.70096
G1 X198.511 Y112.174 E75.77429
G1 X198.392 Y112.94 E75.84755
G1 X198.194 Y113.69 E75.92085
G1 X197.92 Y114.416 E75.99418
G1 X197.573 Y115.109 E76.06742
G1 X197.156 Y115.763 E76.14072
G1 X196.674 Y116.371 E76.21404
G1 X196.347 Y116.72 E76.25923
G1 X196.244 Y116.823 E76.273
G1 X195.668 Y117.342 E76.34627
G1 X195.551 Y117.428 E76.35999
G1 X195.551 Y131.451 E77.68516
G1 X195.895 Y131.724 E77.72666
G1 X196.244 Y132.051 E77.77186
G1 X196.347 Y132.154 E77.78562
G1 X196.866 Y132.73 E77.85889
G1 X197.324 Y133.356 E77.93219
G1 X197.714 Y134.027 E78.00554
G1 X198.034 Y134.733 E78.07879
G1 X198.279 Y135.469 E78.15209
G1 X198.447 Y136.227 E78.22546
G1 X198.536 Y136.997 E78.29871
G1 X198.551 Y137.475 E78.3439
G1 X198.551 Y163.339 E80.78805
G1 X198.511 Y164.114 E80.86138
G1 X198.392 Y164.88 E80.93464
G1 X198.194 Y165.63 E81.00794
G1 X197.92 Y166.356 E81.08127
G1 X197.573 Y167.049 E81.15451
G1 X197.156 Y167.703 E81.22781
G1 X196.674 Y168.311 E81.30113
G1 X196.347 Y168.66 E81.34633
G1 X196.244 Y168.763 E81.36009
G1 X195.668 Y169.282 E81.43336
G1 X195.551 Y169.368 E81.44708
G1 X195.551 Y192.459 E83.62918
G1 X195.511 Y193.234 E83.70252
G1 X195.392 Y194 E83.77577
G1 X195.194 Y194.75 E83.84908
G1 X194.92 Y195.476 E83.92241
G1 X194.573 Y196.169 E83.99565
G1 X194.156 Y196.823 E84.06894
G1 X193.674 Y197.431 E84.14226
G1 X193.347 Y197.78 E84.18746
G1 X193.244 Y197.883 E84.20122
G1 X192.668 Y198.402 E84.27449
G1 X192.042 Y198.86 E84.34779
G1 X191.371 Y199.25 E84.42113
G1 X190.665 Y199.57 E84.49438
G1 X189.929 Y199.815 E84.56769
G1 X189.171 Y199.983 E84.64106
G1 X188.401 Y200.072 E84.71431
G1 X187.923 Y200.087 E84.7595
G1 X162.059 Y200.087 E87.20365
G1 X161.284 Y200.047 E87.27698
G1 X160.518 Y199.928 E87.35024
G1 X159.768 Y199.73 E87.42354
G1 X159.042 Y199.456 E87.49687
G1 X158.349 Y199.109 E87.57011
G1 X157.695 Y198.692 E87.64341
G1 X157.087 Y198.21 E87.71673
G1 X156.738 Y197.883 E87.76193
G1 X156.635 Y197.78 E87.77569
G1 X156.116 Y197.204 E87.84896
G1 X156.03 Y197.087 E87.86268
G1 X142.007 Y197.087 E89.18785
G1 X141.734 Y197.431 E89.22936
G1 X141.407 Y197.78 E89.27455
G1 X141.304 Y197.883 E89.28832
G1 X140.728 Y198.402 E89.36158
G1 X140.102 Y198.86 E89.43488
G1 X139.431 Y199.25 E89.50823
G1 X138.725 Y199.57 E89.58148
G1 X137.989 Y199.815 E89.65478
G1 X137.231 Y199.983 E89.72815
G1 X136.461 Y200.072 E89.8014
G1 X135.983 Y200.087 E89.84659
G1 X110.119 Y200.087 E92.29074
G1 X109.344 Y200.047 E92.36408
G1 X108.578 Y199.928 E92.43733
G1 X107.828 Y199.73 E92.51063
G1 X107.102 Y199.456 E92.58396
G1 X106.409 Y199.109 E92.6572
G1 X105.755 Y198.692 E92.7305
G1 X105.147 Y198.21 E92.80382
G1 X104.798 Y197.883 E92.84902
G1 X104.695 Y197.78 E92.86278
G1 X104.176 Y197.204 E92.93605
G1 X104.09 Y197.087 E92.94977
G1 X90.067 Y197.087 E94.27495
G1 X89.794 Y197.431 E94.31645
G1 X89.467 Y197.78 E94.36164
G1 X89.364 Y197.883 E94.37541
G1 X88.788 Y198.402 E94.44868
G1 X88.162 Y198.86 E94.52198
G1 X87.491 Y199.25 E94.59532
G1 X86.785 Y199.57 E94.66857
G1 X86.049 Y199.815 E94.74187
G1 X85.291 Y199.983 E94.81524
G1 X84.521 Y200.072 E94.88849
G1 X84.043 Y200.087 E94.93369
G1 X58.179 Y200.087 E97.37783
G1 X57.404 Y200.047 E97.45117
G1 X56.638 Y199.928 E97.52442
G1 X55.888 Y199.73 E97.59773
G1 X55.162 Y199.456 E97.67106
G1 X54.469 Y199.109 E97.7443
G1 X53.815 Y198.692 E97.81759
G1 X53.207 Y198.21 E97.89091
G1 X52.858 Y197.883 E97.93611
G1 X52.755 Y197.78 E97.94988
G1 X52.236 Y197.204 E98.02314
G1 X51.778 Y196.578 E98.09644
G1 X51.52 Y196.135 E98.14489
G1 X51.469 Y196.109 E98.1503
G1 X50.815 Y195.692 E98.2236
G1 X50.207 Y195.21 E98.29692
G1 X49.858 Y194.883 E98.34211
G1 X49.755 Y194.78 E98.35588
G1 X49.236 Y194.204 E98.42915
G1 X48.778 Y193.578 E98.50245
G1 X48.388 Y192.907 E98.57579
G1 X48.068 Y192.201 E98.64904
G1 X47.823 Y191.465 E98.72234
G1 X47.655 Y190.707 E98.79571
G1 X47.566 Y189.937 E98.86896
G1 X47.551 Y189.459 E98.91415
G1 X47.551 Y163.595 E101.3583
G1 X47.591 Y162.82 E101.43164
G1 X47.71 Y162.054 E101.50489
G1 X47.908 Y161.304 E101.5782
G1 X48.182 Y160.578 E101.65153
G1 X48.529 Y159.885 E101.72477
G1 X48.946 Y159.231 E101.79806
G1 X49.428 Y158.623 E101.87138
G1 X49.755 Y158.274 E101.91658
G1 X49.858 Y158.171 E101.93034
G1 X50.434 Y157.652 E102.00361
G1 X50.551 Y157.566 E102.01733
G1 X50.551 Y143.543 E103.34251
G1 X50.207 Y143.27 E103.38401
G1 X49.858 Y142.943 E103.4292
G1 X49.755 Y142.84 E103.44297
G1 X49.236 Y142.264 E103.51624
G1 X48.778 Y141.638 E103.58954
G1 X48.388 Y140.967 E103.66288
G1 X48.068 Y140.261 E103.73613
G1 X47.823 Y139.525 E103.80943
G1 X47.655 Y138.767 E103.8828
G1 X47.566 Y137.997 E103.95605
G1 X47.551 Y137.519 E104.00125
G1 X47.551 Y111.655 E106.44539
G1 X47.591 Y110.88 E106.51873
G1 X47.71 Y110.114 E106.59198
G1 X47.908 Y109.364 E106.66529
G1 X48.182 Y108.638 E106.73862
G1 X48.529 Y107.945 E106.81186
G1 X48.946 Y107.291 E106.88515
G1 X49.428 Y106.683 E106.95848
G1 X49.755 Y106.334 E107.00367
G1 X49.858 Y106.231 E107.01744
G1 X50.434 Y105.712 E107.0907
G1 X50.551 Y105.626 E107.10443
G1 X50.551 Y91.603 E108.4296
G1 X50.207 Y91.33 E108.4711
G1 X49.858 Y91.003 E108.5163
