; generated by Slic3r 1.34.1-prusa3d-win64 on 2017-08-26 at 08:21:57

; external perimeters extrusion width = 0.40mm
; perimeters extrusion width = 0.48mm
; infill extrusion width = 0.48mm
; solid infill extrusion width = 0.48mm
; top infill extrusion width = 0.48mm

M107
M190 S60 ; set bed temperature and wait for it to be reached
M104 S240 ; set temperature
G1 Z5; lift nozzle
G28 Y0 ; home Y axis
G1 Y25 ; Move away from Y
G28 X0 ; home X axis
G1 X25 ; Move away from X
G28 Z0 ; Home Z axis
G1 Z5; lift nozzle
M109 S240 ; set temperature and wait for it to be reached
G21 ; set units to millimeters
G90 ; use absolute coordinates
M82 ; use absolute distances for extrusion
G92 E0
G1 E-1.00000 F120.00000
G92 E0
G1 Z0.300 F7800.000
G1 X69.774 Y77.676 F7800.000
G1 E1.00000 F120.00000
G1 F1080
G1 X70.617 Y76.625 E1.09001
G1 X87.735 Y61.521 E2.61510
G1 X88.798 Y60.829 E2.69985
G1 X89.703 Y60.515 E2.76385
G1 X90.654 Y60.394 E2.82785
G1 X108.751 Y60.393 E4.03683
G1 X109.537 Y60.462 E4.08955
G1 X110.305 Y60.665 E4.14262
G1 X111.026 Y60.997 E4.19569
G1 X111.680 Y61.449 E4.24876
G1 X129.328 Y76.575 E5.80154
G1 X130.068 Y77.425 E5.87681
G1 X130.581 Y78.433 E5.95243
G1 X130.786 Y79.196 E6.00514
G1 X130.857 Y79.987 E6.05822
G1 X130.857 Y120.013 E8.73216
G1 X130.729 Y121.074 E8.80356
G1 X130.517 Y121.734 E8.84992
G1 X130.210 Y122.351 E8.89593
G1 X129.815 Y122.915 E8.94194
G1 X129.336 Y123.417 E8.98830
G1 X111.715 Y138.522 E10.53876
G1 X110.632 Y139.203 E10.62421
G1 X109.743 Y139.498 E10.68680
G1 X108.807 Y139.606 E10.74975
G1 X90.723 Y139.607 E11.95786
G1 X89.673 Y139.478 E12.02855
G1 X88.675 Y139.111 E12.09959
G1 X87.783 Y138.521 E12.17099
G1 X70.694 Y123.444 E13.69342
G1 X69.910 Y122.542 E13.77325
G1 X69.385 Y121.469 E13.85309
G1 X69.205 Y120.750 E13.90263
G1 X69.143 Y120.011 E13.95217
G1 X69.143 Y79.987 E16.62595
G1 X69.271 Y78.926 E16.69734
G1 X69.752 Y77.732 E16.78334
G1 X70.243 Y77.936 F7800.000
G1 F1080
G1 X70.992 Y77.009 E16.86298
G1 X88.084 Y61.927 E18.38575
G1 X89.038 Y61.308 E18.46176
G1 X89.838 Y61.033 E18.51827
G1 X90.678 Y60.929 E18.57478
G1 X108.750 Y60.929 E19.78213
G1 X109.450 Y60.990 E19.82902
G1 X110.133 Y61.172 E19.87625
G1 X110.770 Y61.468 E19.92315
G1 X111.346 Y61.868 E19.97005
G1 X128.963 Y76.968 E21.52011
G1 X129.627 Y77.729 E21.58754
G1 X130.084 Y78.634 E21.65530
G1 X130.261 Y79.303 E21.70153
G1 X130.321 Y79.992 E21.74776
G1 X130.321 Y120.007 E24.42095
G1 X130.206 Y120.960 E24.48507
G1 X129.745 Y122.086 E24.56635
G1 X128.968 Y123.028 E24.64797
G1 X111.372 Y138.111 E26.19618
G1 X110.404 Y138.718 E26.27252
G1 X109.615 Y138.977 E26.32804
G1 X108.794 Y139.071 E26.38322
G1 X90.730 Y139.071 E27.59000
G1 X89.792 Y138.956 E27.65313
G1 X88.906 Y138.627 E27.71626
G1 X88.119 Y138.103 E27.77939
G1 X71.049 Y123.043 E29.30015
G1 X70.355 Y122.244 E29.37089
G1 X69.889 Y121.287 E29.44195
G1 X69.733 Y120.659 E29.48519
G1 X69.679 Y120.009 E29.52877
G1 X69.679 Y79.993 E32.20205
G1 X69.794 Y79.040 E32.26618
G1 X70.220 Y77.991 E32.34180
G1 X70.708 Y78.201 F7800.000
G1 F1080
G1 X71.361 Y77.396 E32.41107
G1 X88.433 Y62.333 E33.93202
G1 X89.277 Y61.788 E33.99913
G1 X89.966 Y61.553 E34.04777
G1 X90.693 Y61.465 E34.09671
G1 X108.750 Y61.464 E35.30300
G1 X109.360 Y61.518 E35.34391
G1 X109.952 Y61.677 E35.38483
G1 X110.507 Y61.935 E35.42574
G1 X111.010 Y62.285 E35.46665
G1 X128.600 Y77.361 E37.01436
G1 X129.185 Y78.032 E37.07379
G1 X129.584 Y78.826 E37.13322
G1 X129.786 Y79.993 E37.21229
G1 X129.786 Y120.006 E39.88540
G1 X129.684 Y120.839 E39.94143
G1 X129.280 Y121.819 E40.01223
G1 X128.604 Y122.635 E40.08303
G1 X111.028 Y137.700 E41.62947
G1 X110.177 Y138.233 E41.69659
G1 X109.494 Y138.456 E41.74461
G1 X108.779 Y138.535 E41.79263
G1 X90.736 Y138.536 E42.99801
G1 X89.913 Y138.434 E43.05343
G1 X89.144 Y138.147 E43.10823
G1 X88.458 Y137.688 E43.16335
G1 X71.404 Y122.642 E44.68272
G1 X70.797 Y121.942 E44.74461
G1 X70.393 Y121.108 E44.80650
G1 X70.214 Y120.003 E44.88129
G1 X70.214 Y79.994 E47.55411
G1 X70.316 Y79.161 E47.61015
G1 X70.685 Y78.257 E47.67540
G1 E46.67540 F120.00000
G92 E0
G1 X125.950 Y119.697 F7800.000
G1 E1.00000 F120.00000
G1 F378
G1 X123.727 Y119.697 E1.14851
G1 X123.527 Y117.197 E1.31607
G1 X120.673 Y117.197 E1.50673
G1 X120.473 Y119.697 E1.67429
G1 X118.727 Y119.697 E1.79094
G1 X118.527 Y117.197 E1.95850
G1 X115.673 Y117.197 E2.14916
G1 X115.473 Y119.697 E2.31672
G1 X113.327 Y119.697 E2.46009
G1 X113.127 Y117.197 E2.62766
G1 X108.446 Y117.198 E2.94039
G1 X108.445 Y134.700 E4.10963
G1 X91.055 Y134.700 E5.27142
G1 X91.052 Y117.933 E6.39155
G1 X86.935 Y109.696 E7.00676
G1 X84.577 Y109.696 E7.16433
G1 X80.757 Y116.313 E7.67477
G1 X74.896 Y119.697 E8.12688
G1 X74.326 Y119.697 E8.16495
G1 X84.409 Y105.294 E9.33950
G1 X89.655 Y105.294 E9.68992
G1 X93.952 Y113.894 E10.33223
G1 X93.956 Y130.300 E11.42822
G1 X105.544 Y130.300 E12.20234
G1 X105.546 Y112.798 E13.37157
G1 X123.251 Y112.796 E14.55439
G1 X123.566 Y110.186 E14.73001
G1 X123.698 Y108.863 E14.81882
G1 X123.848 Y107.012 E14.94290
G1 X123.952 Y105.259 E15.06023
G1 X124.013 Y103.695 E15.16476
G1 X124.053 Y101.746 E15.29501
G1 X124.053 Y98.254 E15.52827
G1 X124.020 Y96.496 E15.64573
G1 X123.952 Y94.741 E15.76308
G1 X123.848 Y92.988 E15.88038
G1 X123.708 Y91.238 E15.99767
G1 X123.532 Y89.491 E16.11498
G1 X123.250 Y87.204 E16.26892
G1 X105.546 Y87.202 E17.45170
G1 X105.544 Y69.700 E18.62093
G1 X93.956 Y69.700 E19.39505
G1 X93.952 Y86.106 E20.49104
G1 X89.655 Y94.706 E21.13335
G1 X84.409 Y94.706 E21.48377
G1 X74.326 Y80.303 E22.65832
G1 X74.896 Y80.303 E22.69639
G1 X80.757 Y83.687 E23.14850
G1 X84.577 Y90.304 E23.65894
G1 X86.935 Y90.304 E23.81651
G1 X91.052 Y82.067 E24.43172
G1 X91.055 Y65.300 E25.55185
G1 X108.445 Y65.300 E26.71364
G1 X108.446 Y82.802 E27.88288
G1 X113.127 Y82.803 E28.19561
G1 X113.327 Y80.303 E28.36318
G1 X115.473 Y80.303 E28.50655
G1 X115.673 Y82.803 E28.67411
G1 X118.527 Y82.803 E28.86476
G1 X118.727 Y80.303 E29.03233
G1 X120.473 Y80.303 E29.14897
G1 X120.673 Y82.803 E29.31654
G1 X123.527 Y82.803 E29.50719
G1 X123.727 Y80.303 E29.67475
G1 X125.950 Y80.303 E29.82327
G1 X125.950 Y119.637 E32.45097
G1 X125.600 Y119.503 F7800.000
G1 X125.414 Y119.161 F7800.000
G1 F540
G1 X124.221 Y119.161 E32.53066
G1 X124.021 Y116.661 E32.69823
G1 X120.179 Y116.661 E32.95495
G1 X119.979 Y119.161 E33.12251
G1 X119.221 Y119.161 E33.17309
G1 X119.021 Y116.661 E33.34066
G1 X115.179 Y116.661 E33.59738
G1 X114.979 Y119.161 E33.76494
G1 X113.821 Y119.161 E33.84224
G1 X113.621 Y116.661 E34.00982
G1 X107.910 Y116.662 E34.39137
G1 X107.910 Y134.164 E35.56060
G1 X91.590 Y134.164 E36.65083
G1 X91.588 Y117.806 E37.74363
G1 X87.267 Y109.160 E38.38939
G1 X84.268 Y109.160 E38.58974
G1 X80.365 Y115.921 E39.11125
G1 X76.280 Y118.279 E39.42638
G1 X76.105 Y118.089 E39.44361
G1 X84.688 Y105.829 E40.44339
G1 X89.324 Y105.829 E40.75307
G1 X93.417 Y114.021 E41.36481
G1 X93.421 Y130.836 E42.48814
G1 X106.079 Y130.836 E43.33382
G1 X106.081 Y113.334 E44.50305
G1 X123.726 Y113.332 E45.68182
G1 X124.098 Y110.245 E45.88952
G1 X124.232 Y108.911 E45.97904
G1 X124.382 Y107.049 E46.10384
G1 X124.487 Y105.285 E46.22192
G1 X124.548 Y103.711 E46.32714
G1 X124.589 Y101.751 E46.45809
G1 X124.589 Y98.249 E46.69204
G1 X124.556 Y96.481 E46.81020
G1 X124.487 Y94.715 E46.92829
G1 X124.382 Y92.951 E47.04631
G1 X124.241 Y91.190 E47.16434
G1 X124.064 Y89.432 E47.28241
G1 X123.724 Y86.668 E47.46839
G1 X106.081 Y86.666 E48.64704
G1 X106.079 Y69.164 E49.81627
G1 X93.421 Y69.164 E50.66195
G1 X93.417 Y85.979 E51.78527
G1 X89.324 Y94.171 E52.39702
G1 X84.688 Y94.171 E52.70669
G1 X76.105 Y81.911 E53.70647
G1 X76.280 Y81.721 E53.72370
G1 X80.365 Y84.079 E54.03883
G1 X84.268 Y90.840 E54.56035
G1 X87.267 Y90.840 E54.76070
G1 X91.588 Y82.194 E55.40646
G1 X91.590 Y65.836 E56.49926
G1 X107.910 Y65.836 E57.58948
G1 X107.910 Y83.338 E58.75872
G1 X113.621 Y83.339 E59.14025
G1 X113.821 Y80.839 E59.30783
G1 X114.979 Y80.839 E59.38513
G1 X115.179 Y83.339 E59.55269
G1 X119.021 Y83.339 E59.80942
G1 X119.221 Y80.839 E59.97698
G1 X119.979 Y80.839 E60.02756
G1 X120.179 Y83.339 E60.19512
G1 X124.021 Y83.339 E60.45185
G1 X124.221 Y80.839 E60.61941
G1 X125.414 Y80.839 E60.69910
G1 X125.414 Y119.101 E63.25525
G1 E62.25525 F120.00000
G92 E0
G1 X124.577 Y89.212 F7800.000
G1 E1.00000 F120.00000
G1 F540
G1 X124.198 Y86.133 E1.20726
G1 X106.617 Y86.131 E2.38177
G1 X106.615 Y68.629 E3.55100
G1 X92.885 Y68.629 E4.46824
G1 X92.881 Y85.853 E5.61889
G1 X88.992 Y93.635 E6.20008
G1 X84.967 Y93.635 E6.46900
G1 X77.930 Y83.582 E7.28878
G1 X78.104 Y83.392 E7.30601
G1 X79.973 Y84.471 E7.45017
G1 X83.958 Y91.376 E7.98275
G1 X87.598 Y91.376 E8.22588
G1 X92.124 Y82.320 E8.90220
G1 X92.126 Y66.371 E9.96766
G1 X107.374 Y66.371 E10.98633
G1 X107.375 Y83.873 E12.15555
G1 X114.116 Y83.875 E12.60590
G1 X114.252 Y82.178 E12.71964
G1 X114.548 Y82.178 E12.73946
G1 X114.684 Y83.875 E12.85318
G1 X124.516 Y83.875 E13.51000
G1 X124.570 Y83.196 E13.55548
G1 X124.879 Y83.208 E13.57611
G1 X124.879 Y89.194 E13.97596
G1 X124.637 Y89.208 E13.99214
G1 E12.99214 F120.00000
G92 E0
G1 X124.577 Y110.751 F7800.000
G1 E1.00000 F120.00000
G1 F540
G1 X124.879 Y110.769 E1.02022
G1 X124.879 Y116.792 E1.42254
G1 X124.570 Y116.804 E1.44317
G1 X124.516 Y116.125 E1.48865
G1 X114.684 Y116.125 E2.14547
G1 X114.548 Y117.822 E2.25919
G1 X114.252 Y117.822 E2.27901
G1 X114.116 Y116.125 E2.39275
G1 X107.374 Y116.127 E2.84311
G1 X107.374 Y133.629 E4.01233
G1 X92.126 Y133.629 E5.03100
G1 X92.124 Y117.680 E6.09647
G1 X87.598 Y108.624 E6.77279
G1 X83.958 Y108.624 E7.01592
G1 X79.973 Y115.529 E7.54850
G1 X78.104 Y116.608 E7.69266
G1 X77.930 Y116.418 E7.70989
G1 X84.967 Y106.365 E8.52966
G1 X88.992 Y106.365 E8.79859
G1 X92.881 Y114.147 E9.37977
G1 X92.885 Y131.371 E10.53043
G1 X106.615 Y131.371 E11.44767
G1 X106.617 Y113.869 E12.61690
G1 X124.201 Y113.867 E13.79162
G1 X124.569 Y110.811 E13.99727
G1 X124.746 Y110.493 F7800.000
G1 F360
G1 X124.796 Y109.476 E14.08610
G1 F360
G1 X124.841 Y108.493 E14.16261
G1 F360
G1 X124.879 Y107.557 E14.22658
G1 F360
G1 X124.915 Y106.492 E14.28923
G1 F360
G1 X124.950 Y105.310 E14.34796
G1 F360
G1 X124.981 Y103.726 E14.41280
G1 F360
G1 X125.001 Y101.754 E14.47828
G1 X125.001 Y98.247 E14.59476
G1 X124.968 Y95.580 E14.68332
G1 F360
G1 X124.933 Y94.099 E14.74391
G1 F360
G1 X124.898 Y92.913 E14.80287
G1 F360
G1 X124.850 Y91.731 E14.87378
G1 F360
G1 X124.799 Y90.579 E14.95650
G1 F360
G1 X124.743 Y89.470 E15.04812
G1 E14.04812 F120.00000
G92 E0
G1 X124.577 Y86.745 F7800.000
G1 E1.00000 F120.00000
G1 F360
G1 X124.523 Y85.865 E1.00597
G1 X124.665 Y85.176 F7800.000
G1 F1080
G1 X123.819 Y84.330 E1.08619
G1 X123.058 Y84.330 E1.13717
G1 X124.160 Y85.431 E1.24162
G1 X123.982 Y85.442 E1.25358
G1 X123.996 Y85.678 E1.26939
G1 X123.646 Y85.678 E1.29289
G1 X122.298 Y84.330 E1.42069
G1 X121.538 Y84.330 E1.47167
G1 X122.885 Y85.677 E1.59946
G1 X122.125 Y85.677 E1.65045
G1 X120.777 Y84.330 E1.77822
G1 X120.017 Y84.330 E1.82921
G1 X121.364 Y85.677 E1.95697
G1 X120.604 Y85.677 E2.00796
G1 X119.257 Y84.330 E2.13571
G1 X118.497 Y84.330 E2.18669
G1 X119.844 Y85.677 E2.31443
G1 X119.083 Y85.677 E2.36542
G1 X117.736 Y84.330 E2.49315
G1 X116.976 Y84.330 E2.54413
G1 X118.323 Y85.677 E2.67185
G1 X117.562 Y85.677 E2.72284
G1 X116.216 Y84.330 E2.85055
G1 X115.455 Y84.330 E2.90153
G1 X116.802 Y85.677 E3.02922
G1 X116.042 Y85.677 E3.08021
G1 X114.695 Y84.330 E3.20790
G1 X113.935 Y84.330 E3.25889
G1 X115.281 Y85.677 E3.38657
G1 X114.521 Y85.677 E3.43756
G1 X113.174 Y84.330 E3.56526
G1 X112.414 Y84.330 E3.61626
G1 X113.760 Y85.676 E3.74397
G1 X113.000 Y85.676 E3.79496
G1 X111.653 Y84.330 E3.92268
G1 X110.893 Y84.329 E3.97368
G1 X112.239 Y85.676 E4.10141
G1 X111.479 Y85.676 E4.15240
G1 X110.132 Y84.329 E4.28014
G1 X109.371 Y84.329 E4.33113
G1 X110.719 Y85.676 E4.45889
G1 X109.958 Y85.676 E4.50988
G1 X108.611 Y84.329 E4.63764
G1 X107.850 Y84.329 E4.68864
G1 X109.198 Y85.676 E4.81641
G1 X108.437 Y85.676 E4.86740
G1 X107.358 Y84.596 E4.96980
G1 X107.072 Y84.596 E4.98896
G1 X107.072 Y85.071 E5.02078
G1 X107.918 Y85.917 E5.10102
G1 E4.10102 F120.00000
G92 E0
G1 X106.996 Y84.141 F7800.000
G1 E1.00000 F120.00000
G1 F360
G1 X106.995 Y68.361 E1.31118
G1 X107.160 Y67.710 F7800.000
G1 F1080
G1 X106.277 Y66.826 E1.39767
G1 X105.491 Y66.826 E1.45204
G1 X106.571 Y67.906 E1.55773
G1 X106.428 Y67.906 E1.56761
G1 X106.428 Y68.174 E1.58615
G1 X106.053 Y68.174 E1.61210
G1 X104.706 Y66.826 E1.74401
G1 X103.921 Y66.826 E1.79838
G1 X105.268 Y68.174 E1.93030
G1 X104.483 Y68.174 E1.98467
G1 X103.136 Y66.826 E2.11658
G1 X102.351 Y66.826 E2.17095
G1 X103.698 Y68.174 E2.30286
G1 X102.913 Y68.174 E2.35723
G1 X101.566 Y66.826 E2.48915
G1 X100.780 Y66.826 E2.54352
G1 X102.127 Y68.174 E2.67543
G1 X101.342 Y68.174 E2.72980
G1 X99.995 Y66.826 E2.86171
G1 X99.210 Y66.826 E2.91608
G1 X100.557 Y68.174 E3.04799
G1 X99.772 Y68.174 E3.10236
G1 X98.425 Y66.826 E3.23428
G1 X97.640 Y66.826 E3.28865
G1 X98.987 Y68.174 E3.42056
G1 X98.202 Y68.174 E3.47493
G1 X96.855 Y66.826 E3.60684
G1 X96.069 Y66.826 E3.66121
G1 X97.416 Y68.174 E3.79313
G1 X96.631 Y68.174 E3.84750
G1 X95.284 Y66.826 E3.97941
G1 X94.499 Y66.826 E4.03378
G1 X95.846 Y68.174 E4.16569
G1 X95.061 Y68.174 E4.22006
G1 X93.714 Y66.826 E4.35198
G1 X92.929 Y66.826 E4.40635
G1 X94.276 Y68.174 E4.53826
G1 X93.491 Y68.174 E4.59263
G1 X92.340 Y67.023 E4.70532
G1 X92.505 Y68.361 F7800.000
G1 F360
G1 X92.503 Y82.383 E4.98455
G1 X92.387 Y83.361 E5.00416
G1 X92.667 Y84.700 F7800.000
G1 F1080
G1 X91.851 Y83.884 E5.08158
G1 X91.598 Y84.391 E5.11960
G1 X92.426 Y85.219 E5.19819
G1 X92.426 Y85.745 E5.23347
G1 X92.348 Y85.902 E5.24519
G1 X91.344 Y84.898 E5.34039
G1 X91.091 Y85.405 E5.37841
G1 X92.095 Y86.409 E5.47362
G1 X91.841 Y86.916 E5.51164
G1 X90.837 Y85.912 E5.60685
G1 X90.584 Y86.419 E5.64487
G1 X91.588 Y87.423 E5.74009
G1 X91.334 Y87.930 E5.77811
G1 X90.330 Y86.926 E5.87332
G1 X90.077 Y87.433 E5.91134
G1 X91.081 Y88.437 E6.00657
G1 X90.828 Y88.944 E6.04459
G1 X89.824 Y87.940 E6.13981
G1 X89.570 Y88.447 E6.17783
G1 X90.574 Y89.451 E6.27306
G1 X90.321 Y89.958 E6.31108
G1 X89.317 Y88.954 E6.40631
G1 X89.063 Y89.461 E6.44433
G1 X90.067 Y90.465 E6.53956
G1 X89.814 Y90.972 E6.57758
G1 X88.810 Y89.968 E6.67282
G1 X88.557 Y90.475 E6.71084
G1 X89.561 Y91.480 E6.80608
G1 X89.307 Y91.987 E6.84409
G1 X88.303 Y90.982 E6.93934
G1 X88.050 Y91.490 E6.97736
G1 X89.054 Y92.494 E7.07260
G1 X88.800 Y93.001 E7.11062
G1 X87.631 Y91.831 E7.22158
G1 X86.870 Y91.831 E7.27259
G1 X88.219 Y93.180 E7.40052
G1 X87.458 Y93.180 E7.45153
G1 X86.110 Y91.831 E7.57946
G1 X85.349 Y91.831 E7.63046
G1 X86.698 Y93.180 E7.75839
G1 X85.937 Y93.180 E7.80940
G1 X84.348 Y91.590 E7.96019
G1 X82.927 Y90.195 F7800.000
G1 F360
G1 X82.248 Y89.128 E7.96920
G1 F360
G1 X81.569 Y88.062 E7.99384
G1 F360
G1 X80.890 Y86.996 E8.03411
G1 F360
G1 X80.211 Y85.929 E8.09000
G1 F360
G1 X79.531 Y84.863 E8.16151
G1 F360
G1 X79.192 Y84.330 E8.20508
G1 E7.20508 F120.00000
G92 E0
G1 X82.927 Y109.805 F7800.000
G1 E1.00000 F120.00000
G1 F360
G1 X82.248 Y110.872 E1.00901
G1 F360
G1 X81.569 Y111.938 E1.03365
G1 F360
G1 X80.890 Y113.004 E1.07392
G1 F360
G1 X80.211 Y114.071 E1.12981
G1 F360
G1 X79.531 Y115.137 E1.20132
G1 F360
G1 X79.192 Y115.670 E1.24490
G1 E0.24490 F120.00000
G92 E0
G1 X84.198 Y107.838 F7800.000
G1 E1.00000 F120.00000
G1 F1080
G1 X84.529 Y108.169 E1.03288
G1 X85.324 Y108.169 E1.08865
G1 X84.698 Y107.543 E1.15076
G1 X85.026 Y107.075 E1.19080
G1 X86.120 Y108.169 E1.29930
G1 X86.915 Y108.169 E1.35506
G1 X85.566 Y106.820 E1.48883
G1 X86.361 Y106.820 E1.54460
G1 X91.597 Y112.056 E2.06385
G1 X90.802 Y110.466 F7800.000
G1 F1080
G1 X87.156 Y106.820 E2.42546
G1 X87.952 Y106.820 E2.48123
G1 X90.008 Y108.877 E2.68520
G1 X88.304 Y109.558 F7800.000
G1 F1080
G1 X92.391 Y113.645 E3.09056
G1 X92.667 Y114.717 F7800.000
G1 F1080
G1 X89.098 Y111.148 E3.44451
G1 X89.893 Y112.738 F7800.000
G1 F1080
G1 X92.667 Y115.512 E3.71968
G1 X92.668 Y116.307 F7800.000
G1 F1080
G1 X90.687 Y114.327 E3.91606
G1 E2.91606 F120.00000
G92 E0
G1 X92.387 Y116.639 F7800.000
G1 E1.00000 F120.00000
G1 F360
G1 X92.503 Y117.617 E1.01961
G1 X92.505 Y131.639 E1.29884
