; generated by Slic3r 1.34.1-prusa3d-win64 on 2017-08-13 at 09:27:27

; external perimeters extrusion width = 0.40mm
; perimeters extrusion width = 0.68mm
; infill extrusion width = 1.28mm
; solid infill extrusion width = 0.68mm
; top infill extrusion width = 0.68mm

M107
M190 S65 ; set bed temperature and wait for it to be reached
M104 S205 ; set temperature
G1 Z5; lift nozzle
G28 Y0 ; home Y axis
G1 Y25 ; Move away from Y
G28 X0 ; home X axis
G1 X25 ; Move away from X
G28 Z0 ; Home Z axis
G1 Z5; lift nozzle
M109 S205 ; set temperature and wait for it to be reached
G21 ; set units to millimeters
G90 ; use absolute coordinates
M82 ; use absolute distances for extrusion
G92 E0
G1 E-1.00000 F120.00000
G92 E0
G1 Z0.300 F7800.000
G1 X53.854 Y72.887 F7800.000
G1 E1.00000 F120.00000
G1 F1080
G1 X54.853 Y72.175 E1.08194
G1 X57.550 Y70.939 E1.28014
G1 X59.930 Y69.994 E1.45118
G1 X63.125 Y68.922 E1.67636
G1 X65.430 Y68.282 E1.83617
G1 X68.732 Y67.553 E2.06204
G1 X71.065 Y67.165 E2.22007
G1 X73.418 Y66.879 E2.37837
G1 X76.973 Y66.650 E2.61638
G1 X123.005 Y66.650 E5.69159
G1 X126.667 Y66.887 E5.93671
G1 X131.208 Y67.541 E6.24324
G1 X134.660 Y68.305 E6.47938
G1 X139.002 Y69.611 E6.78231
G1 X142.441 Y70.936 E7.02852
G1 X145.461 Y72.357 E7.25150
G1 X146.113 Y72.856 E7.30634
G1 X146.666 Y73.463 E7.36117
G1 X147.102 Y74.158 E7.41601
G1 X147.410 Y74.925 E7.47119
G1 X147.604 Y76.221 E7.55875
G1 X147.571 Y104.300 E9.43460
G1 X142.432 Y124.996 E10.85915
G1 X141.936 Y126.140 E10.94250
G1 X141.146 Y127.113 E11.02619
G1 X140.382 Y127.691 E11.09020
G1 X139.516 Y128.099 E11.15420
G1 X125.048 Y132.917 E12.17288
G1 X123.491 Y133.283 E12.27976
G1 X76.987 Y133.307 E15.38650
G1 X76.093 Y133.226 E15.44642
G1 X75.146 Y132.980 E15.51177
G1 X60.486 Y128.100 E16.54400
G1 X59.489 Y127.610 E16.61821
G1 X58.638 Y126.896 E16.69242
G1 X57.980 Y125.995 E16.76699
G1 X57.560 Y124.966 E16.84120
G1 X52.531 Y104.857 E18.22598
G1 X52.414 Y104.157 E18.27340
G1 X52.401 Y76.038 E20.15190
G1 X52.526 Y75.163 E20.21097
G1 X52.818 Y74.323 E20.27039
G1 X53.267 Y73.554 E20.32981
G1 X53.815 Y72.932 E20.38522
G1 X54.215 Y73.286 F7800.000
G1 F1080
G1 X55.141 Y72.629 E20.46107
G1 X57.978 Y71.340 E20.66924
G1 X61.055 Y70.158 E20.88944
G1 X63.331 Y69.419 E21.04937
G1 X66.590 Y68.551 E21.27467
G1 X68.880 Y68.070 E21.43098
G1 X71.186 Y67.689 E21.58710
G1 X74.529 Y67.317 E21.81182
G1 X76.988 Y67.186 E21.97632
G1 X123.005 Y67.186 E25.05051
G1 X126.569 Y67.416 E25.28912
G1 X130.027 Y67.876 E25.52216
G1 X134.440 Y68.802 E25.82341
G1 X137.810 Y69.775 E26.05769
G1 X141.976 Y71.320 E26.35456
G1 X145.051 Y72.735 E26.58067
G1 X145.670 Y73.179 E26.63155
G1 X146.198 Y73.734 E26.68276
G1 X146.611 Y74.374 E26.73363
G1 X146.898 Y75.085 E26.78484
G1 X147.069 Y76.230 E26.86217
G1 X147.040 Y104.232 E28.73291
G1 X141.919 Y124.844 E30.15172
G1 X141.473 Y125.869 E30.22641
G1 X140.766 Y126.735 E30.30110
G1 X140.094 Y127.240 E30.35728
G1 X139.332 Y127.596 E30.41346
G1 X124.889 Y132.406 E31.43038
G1 X123.433 Y132.750 E31.53035
G1 X76.987 Y132.771 E34.63320
G1 X76.184 Y132.698 E34.68711
G1 X75.303 Y132.467 E34.74793
G1 X60.664 Y127.595 E35.77866
G1 X59.776 Y127.158 E35.84477
G1 X59.019 Y126.520 E35.91087
G1 X58.444 Y125.727 E35.97632
G1 X58.073 Y124.815 E36.04209
G1 X52.948 Y104.114 E37.46679
G1 X52.935 Y76.081 E39.33957
G1 X53.044 Y75.297 E39.39244
G1 X53.306 Y74.545 E39.44563
G1 X53.705 Y73.862 E39.49850
G1 X54.175 Y73.331 E39.54583
G1 X54.574 Y73.687 F7800.000
G1 F1080
G1 X55.406 Y73.095 E39.61405
G1 X58.199 Y71.828 E39.81897
G1 X61.236 Y70.662 E40.03623
G1 X63.491 Y69.930 E40.19465
G1 X66.717 Y69.072 E40.41767
G1 X68.977 Y68.596 E40.57195
G1 X71.257 Y68.220 E40.72629
G1 X74.581 Y67.850 E40.94976
G1 X76.978 Y67.721 E41.11010
G1 X123.005 Y67.721 E44.18495
G1 X126.519 Y67.949 E44.42021
G1 X129.935 Y68.404 E44.65045
G1 X134.314 Y69.323 E44.94932
G1 X137.615 Y70.275 E45.17886
G1 X140.961 Y71.484 E45.41653
G1 X144.738 Y73.173 E45.69295
G1 X145.293 Y73.561 E45.73819
G1 X145.764 Y74.048 E45.78343
G1 X146.133 Y74.616 E45.82867
G1 X146.387 Y75.243 E45.87391
G1 X146.533 Y76.233 E45.94072
G1 X146.509 Y104.162 E47.80658
G1 X141.406 Y124.688 E49.21957
G1 X141.014 Y125.594 E49.28545
G1 X140.391 Y126.352 E49.35103
G1 X139.811 Y126.785 E49.39936
G1 X139.151 Y127.092 E49.44800
G1 X124.724 Y131.896 E50.46385
G1 X123.372 Y132.218 E50.55669
G1 X76.988 Y132.236 E53.65541
G1 X76.275 Y132.170 E53.70321
G1 X75.460 Y131.955 E53.75954
G1 X60.845 Y127.091 E54.78854
G1 X60.064 Y126.706 E54.84673
G1 X59.400 Y126.142 E54.90493
G1 X58.905 Y125.454 E54.96158
G1 X58.588 Y124.667 E55.01824
G1 X53.482 Y104.072 E56.43573
G1 X53.469 Y76.120 E58.30310
G1 X53.564 Y75.426 E58.34988
G1 X53.792 Y74.769 E58.39636
G1 X54.144 Y74.169 E58.44283
G1 X54.534 Y73.732 E58.48194
G1 E57.48194 F120.00000
G92 E0
G1 X91.697 Y123.534 F7800.000
G1 E1.00000 F120.00000
G1 F378
G1 X77.866 Y128.141 E1.97391
G1 X77.175 Y128.362 E2.02235
G1 X76.998 Y128.395 E2.03441
G1 X76.825 Y128.362 E2.04613
G1 X76.134 Y128.141 E2.09462
G1 X62.303 Y123.534 E3.06853
G1 X62.303 Y108.626 E4.06447
G1 X57.303 Y103.626 E4.53687
G1 X57.303 Y96.515 E5.01188
G1 X59.803 Y96.208 E5.18016
G1 X59.803 Y93.792 E5.34162
G1 X57.303 Y93.485 E5.50990
G1 X57.303 Y91.515 E5.64145
G1 X59.802 Y91.209 E5.80970
G1 X59.801 Y88.791 E5.97118
G1 X57.303 Y88.485 E6.13937
G1 X57.303 Y86.515 E6.27092
G1 X59.803 Y86.208 E6.43919
G1 X59.803 Y83.792 E6.60066
G1 X57.303 Y83.485 E6.76893
G1 X57.303 Y76.441 E7.23950
G1 X58.496 Y75.881 E7.32755
G1 X59.481 Y75.450 E7.39937
G1 X60.637 Y74.976 E7.48283
G1 X61.599 Y74.608 E7.55170
G1 X63.560 Y73.926 E7.69034
G1 X64.563 Y73.613 E7.76057
G1 X66.597 Y73.049 E7.90155
G1 X68.651 Y72.572 E8.04243
G1 X70.725 Y72.183 E8.18341
G1 X71.764 Y72.022 E8.25364
G1 X73.861 Y71.766 E8.39480
G1 X74.911 Y71.671 E8.46523
G1 X75.967 Y71.599 E8.53595
G1 X77.003 Y71.557 E8.60520
G1 X78.032 Y71.599 E8.67402
G1 X79.089 Y71.671 E8.74474
G1 X80.139 Y71.766 E8.81518
G1 X82.236 Y72.022 E8.95633
G1 X83.275 Y72.183 E9.02656
G1 X85.349 Y72.572 E9.16755
G1 X87.403 Y73.049 E9.30842
G1 X89.437 Y73.613 E9.44941
G1 X90.440 Y73.926 E9.51964
G1 X92.401 Y74.608 E9.65828
G1 X93.363 Y74.976 E9.72714
G1 X94.519 Y75.450 E9.81061
G1 X95.504 Y75.881 E9.88243
G1 X96.697 Y76.441 E9.97048
G1 X96.697 Y83.485 E10.44105
G1 X94.197 Y83.792 E10.60932
G1 X94.197 Y86.208 E10.77078
G1 X96.697 Y86.515 E10.93905
G1 X96.697 Y88.485 E11.07060
G1 X94.199 Y88.791 E11.23880
G1 X94.198 Y91.209 E11.40028
G1 X96.697 Y91.515 E11.56852
G1 X96.697 Y93.485 E11.70007
G1 X94.197 Y93.792 E11.86835
G1 X94.197 Y96.208 E12.02982
G1 X96.697 Y96.515 E12.19810
G1 X96.697 Y103.626 E12.67310
G1 X91.697 Y108.626 E13.14551
G1 X91.697 Y123.474 E14.13744
G1 X91.327 Y123.381 F7800.000
G1 X91.161 Y123.148 F7800.000
G1 F540
G1 X77.700 Y127.632 E15.08532
G1 X76.989 Y127.852 E15.13504
G1 X62.839 Y123.148 E16.13123
G1 X62.839 Y108.404 E17.11619
G1 X57.838 Y103.404 E17.58859
G1 X57.838 Y96.989 E18.01712
G1 X60.338 Y96.682 E18.18540
G1 X60.338 Y93.318 E18.41018
G1 X57.838 Y93.011 E18.57846
G1 X57.838 Y91.989 E18.64669
G1 X60.338 Y91.682 E18.81495
G1 X60.337 Y88.317 E19.03974
G1 X57.838 Y88.011 E19.20793
G1 X57.838 Y86.989 E19.27616
G1 X60.338 Y86.682 E19.44443
G1 X60.338 Y83.318 E19.66921
G1 X57.838 Y83.011 E19.83748
G1 X57.838 Y76.781 E20.25365
G1 X58.717 Y76.369 E20.31849
G1 X59.690 Y75.944 E20.38943
G1 X60.834 Y75.474 E20.47206
G1 X61.783 Y75.111 E20.53995
G1 X63.727 Y74.435 E20.67746
G1 X64.715 Y74.127 E20.74655
G1 X66.729 Y73.568 E20.88620
G1 X68.761 Y73.096 E21.02555
G1 X70.815 Y72.711 E21.16520
G1 X71.837 Y72.552 E21.23428
G1 X73.918 Y72.298 E21.37430
G1 X74.953 Y72.205 E21.44377
G1 X75.997 Y72.134 E21.51362
G1 X77.003 Y72.093 E21.58092
G1 X78.003 Y72.134 E21.64779
G1 X79.047 Y72.205 E21.71765
G1 X80.082 Y72.298 E21.78712
G1 X82.163 Y72.552 E21.92713
G1 X83.185 Y72.711 E21.99622
G1 X85.239 Y73.096 E22.13587
G1 X87.271 Y73.568 E22.27522
G1 X89.285 Y74.127 E22.41487
G1 X90.273 Y74.435 E22.48396
G1 X92.217 Y75.111 E22.62147
G1 X93.166 Y75.474 E22.68935
G1 X94.310 Y75.944 E22.77199
G1 X95.283 Y76.369 E22.84293
G1 X96.162 Y76.781 E22.90777
G1 X96.162 Y83.011 E23.32393
G1 X93.662 Y83.318 E23.49220
G1 X93.662 Y86.682 E23.71698
G1 X96.162 Y86.989 E23.88526
G1 X96.162 Y88.011 E23.95349
G1 X93.663 Y88.317 E24.12168
G1 X93.662 Y91.682 E24.34647
G1 X96.162 Y91.989 E24.51472
G1 X96.162 Y93.011 E24.58296
G1 X93.662 Y93.318 E24.75124
G1 X93.662 Y96.682 E24.97602
G1 X96.162 Y96.989 E25.14430
G1 X96.162 Y103.404 E25.57283
G1 X91.161 Y108.404 E26.04523
G1 X91.161 Y123.088 E27.02618
G1 X90.626 Y122.761 F7800.000
G1 F540
G1 X77.000 Y127.293 E27.98546
G1 X63.374 Y122.761 E28.94479
G1 X63.374 Y108.182 E29.91877
G1 X58.374 Y103.182 E30.39118
G1 X58.374 Y97.463 E30.77323
G1 X60.874 Y97.156 E30.94151
G1 X60.874 Y92.844 E31.22960
G1 X59.232 Y92.642 E31.34013
G1 X59.232 Y92.358 E31.35913
G1 X60.874 Y92.156 E31.46964
G1 X60.872 Y87.844 E31.75775
G1 X59.232 Y87.642 E31.86818
G1 X59.232 Y87.358 E31.88717
G1 X60.874 Y87.156 E31.99769
G1 X60.874 Y82.844 E32.28579
G1 X58.374 Y82.537 E32.45406
G1 X58.374 Y77.122 E32.81583
G1 X59.899 Y76.437 E32.92751
G1 X61.032 Y75.972 E33.00931
G1 X61.967 Y75.614 E33.07621
G1 X63.895 Y74.944 E33.21259
G1 X64.866 Y74.641 E33.28055
G1 X66.861 Y74.087 E33.41886
G1 X68.871 Y73.620 E33.55669
G1 X70.906 Y73.239 E33.69500
G1 X71.911 Y73.083 E33.76294
G1 X73.974 Y72.831 E33.90181
G1 X74.996 Y72.739 E33.97032
G1 X76.026 Y72.669 E34.03930
G1 X77.003 Y72.629 E34.10465
G1 X77.974 Y72.669 E34.16958
G1 X79.004 Y72.739 E34.23856
G1 X80.026 Y72.831 E34.30708
G1 X82.089 Y73.083 E34.44594
G1 X83.094 Y73.239 E34.51388
G1 X85.129 Y73.620 E34.65220
G1 X87.139 Y74.087 E34.79003
G1 X89.134 Y74.641 E34.92834
G1 X90.105 Y74.944 E34.99629
G1 X92.033 Y75.614 E35.13267
G1 X92.968 Y75.972 E35.19958
G1 X94.101 Y76.437 E35.28138
G1 X95.626 Y77.122 E35.39306
G1 X95.626 Y82.537 E35.75482
G1 X93.126 Y82.844 E35.92309
G1 X93.126 Y87.156 E36.21119
G1 X94.768 Y87.358 E36.32171
G1 X94.768 Y87.642 E36.34071
G1 X93.128 Y87.844 E36.45114
G1 X93.126 Y92.156 E36.73924
G1 X94.768 Y92.358 E36.84976
G1 X94.768 Y92.642 E36.86875
G1 X93.126 Y92.844 E36.97929
G1 X93.126 Y97.156 E37.26738
G1 X95.626 Y97.463 E37.43566
G1 X95.626 Y103.182 E37.81771
G1 X90.626 Y108.182 E38.29011
G1 X90.626 Y122.701 E39.26009
G1 E38.26009 F120.00000
G92 E0
G1 X92.858 Y92.500 F7800.000
G1 E1.00000 F120.00000
G1 F360
G1 X93.062 Y92.500 E1.00316
G1 F360
G1 X93.469 Y92.500 E1.00553
G1 E0.00553 F120.00000
G92 E0
G1 X93.469 Y87.500 F7800.000
G1 E1.00000 F120.00000
G1 F360
G1 X93.062 Y87.500 E1.00237
G1 F360
G1 X92.858 Y87.500 E1.00553
G1 E0.00553 F120.00000
G92 E0
G1 X76.242 Y87.800 F7800.000
G1 E1.00000 F120.00000
G1 F1080
G1 X77.001 Y87.743 E1.05152
G1 X77.758 Y87.800 E1.10286
G1 X77.758 Y99.694 E1.90759
G1 X77.000 Y100.452 E1.98010
G1 X76.242 Y99.695 E2.05260
G1 X76.242 Y87.860 E2.85328
G1 X75.699 Y87.298 F7800.000
G1 F1080
G1 X77.001 Y87.200 E2.94161
G1 X78.300 Y87.298 E3.02976
G1 X78.300 Y99.919 E3.88360
G1 X77.000 Y101.219 E4.00801
G1 X75.700 Y99.919 E4.13240
G1 X75.699 Y87.358 E4.98219
G1 X75.157 Y86.797 F7800.000
G1 F1080
G1 X77.001 Y86.657 E5.10735
G1 X78.843 Y86.797 E5.23229
G1 X78.843 Y100.144 E6.13525
G1 X77.000 Y101.986 E6.31155
G1 X75.157 Y100.144 E6.48783
G1 X75.157 Y86.857 E7.38674
G1 X75.321 Y86.240 F7800.000
G1 F1080
G1 X77.001 Y86.114 E7.50074
G1 X78.679 Y86.240 E7.61455
G1 X79.385 Y86.326 E7.66269
G1 X79.385 Y100.368 E8.61269
G1 X77.000 Y102.753 E8.84089
G1 X74.615 Y100.369 E9.06907
G1 X74.614 Y86.326 E10.01908
G1 X75.262 Y86.247 E10.06321
G1 X75.267 Y85.700 F7800.000
G1 F1080
G1 X77.001 Y85.571 E10.18089
G1 X78.733 Y85.700 E10.29837
G1 X79.928 Y85.846 E10.37978
G1 X79.928 Y100.593 E11.37747
G1 X77.695 Y102.826 E11.59107
G1 X77.695 Y113.435 E12.30882
G1 X77.000 Y113.666 E12.35835
G1 X76.305 Y113.435 E12.40792
G1 X76.305 Y102.826 E13.12566
G1 X74.073 Y100.593 E13.33924
G1 X74.071 Y85.846 E14.33694
G1 X75.207 Y85.707 E14.41436
G1 X75.213 Y85.160 F7800.000
G1 F1080
G1 X77.001 Y85.028 E14.53571
G1 X78.787 Y85.160 E14.65686
G1 X80.470 Y85.366 E14.77154
G1 X80.470 Y100.818 E15.81692
G1 X78.237 Y103.050 E16.03052
G1 X78.237 Y113.826 E16.75954
G1 X77.000 Y114.237 E16.84775
G1 X75.763 Y113.826 E16.93599
G1 X75.763 Y103.050 E17.66499
G1 X73.530 Y100.818 E17.87857
G1 X73.529 Y85.366 E18.92396
G1 X75.153 Y85.167 E19.03466
G1 X75.158 Y84.620 F7800.000
G1 F1080
G1 X76.732 Y84.496 E19.14147
G1 X77.266 Y84.496 E19.17758
G1 X78.842 Y84.620 E19.28450
G1 X80.465 Y84.819 E19.39514
G1 X81.012 Y84.903 E19.43262
G1 X81.012 Y101.042 E20.52448
G1 X78.780 Y103.275 E20.73808
G1 X78.780 Y114.217 E21.47837
G1 X77.000 Y114.809 E21.60524
G1 X75.220 Y114.217 E21.73216
G1 X75.220 Y103.275 E22.47243
G1 X72.988 Y101.043 E22.68601
G1 X72.986 Y84.904 E23.77788
G1 X73.535 Y84.819 E23.81544
G1 X75.099 Y84.628 E23.92202
G1 X75.104 Y84.081 F7800.000
G1 F1080
G1 X76.700 Y83.955 E24.03032
G1 X77.298 Y83.955 E24.07081
G1 X78.896 Y84.081 E24.17921
G1 X80.539 Y84.281 E24.29122
G1 X81.555 Y84.451 E24.36087
G1 X81.555 Y101.267 E25.49857
G1 X79.322 Y103.500 E25.71217
G1 X79.322 Y114.608 E26.46372
G1 X77.000 Y115.381 E26.62927
G1 X74.678 Y114.608 E26.79486
G1 X74.678 Y103.500 E27.54640
G1 X72.445 Y101.267 E27.75998
G1 X72.444 Y84.451 E28.89768
G1 X73.461 Y84.281 E28.96743
G1 X75.045 Y84.088 E29.07538
G1 X75.050 Y83.541 F7800.000
G1 F1080
G1 X76.668 Y83.413 E29.18516
G1 X77.002 Y83.400 E29.20778
G1 X77.331 Y83.413 E29.23007
G1 X78.950 Y83.541 E29.33995
G1 X80.614 Y83.744 E29.45334
G1 X82.097 Y84.000 E29.55519
G1 X82.097 Y101.492 E30.73854
G1 X79.865 Y103.724 E30.95214
G1 X79.865 Y115.000 E31.71496
G1 X77.000 Y115.952 E31.91918
G1 X74.135 Y115.000 E32.12344
G1 X74.135 Y103.724 E32.88625
G1 X71.903 Y101.492 E33.09983
G1 X71.901 Y84.001 E34.28318
G1 X73.386 Y83.744 E34.38514
G1 X74.990 Y83.548 E34.49446
G1 X74.996 Y83.001 F7800.000
G1 F1080
G1 X76.635 Y82.872 E34.60573
G1 X77.002 Y82.857 E34.63055
G1 X77.363 Y82.871 E34.65503
G1 X79.004 Y83.001 E34.76639
G1 X80.688 Y83.207 E34.88115
G1 X81.370 Y83.312 E34.92783
G1 X82.640 Y83.550 E35.01523
G1 X82.640 Y101.717 E36.24423
G1 X80.407 Y103.949 E36.45783
G1 X80.407 Y115.391 E37.23191
G1 X77.000 Y116.524 E37.47481
G1 X73.593 Y115.391 E37.71774
G1 X73.593 Y103.949 E38.49182
G1 X71.360 Y101.717 E38.70540
G1 X71.359 Y83.551 E39.93439
G1 X72.630 Y83.312 E40.02191
G1 X73.312 Y83.207 E40.06859
G1 X74.936 Y83.008 E40.17929
G1 X74.941 Y82.461 F7800.000
G1 F1080
G1 X76.603 Y82.330 E40.29204
G1 X77.002 Y82.314 E40.31905
G1 X77.396 Y82.330 E40.34572
G1 X79.059 Y82.461 E40.45856
G1 X80.762 Y82.669 E40.57469
G1 X81.461 Y82.777 E40.62255
G1 X83.182 Y83.100 E40.74098
G1 X83.182 Y101.941 E42.01564
G1 X80.950 Y104.174 E42.22924
G1 X80.950 Y115.782 E43.01459
G1 X77.000 Y117.096 E43.29615
G1 X73.050 Y115.782 E43.57776
G1 X73.050 Y104.174 E44.36310
G1 X70.818 Y101.941 E44.57668
G1 X70.816 Y83.101 E45.85133
G1 X72.539 Y82.777 E45.96989
G1 X73.238 Y82.669 E46.01774
G1 X74.882 Y82.468 E46.12981
G1 X74.887 Y81.921 F7800.000
G1 F1080
G1 X76.571 Y81.789 E46.24405
G1 X77.002 Y81.771 E46.27326
G1 X77.428 Y81.788 E46.30212
G1 X79.113 Y81.921 E46.41644
G1 X80.837 Y82.132 E46.53394
G1 X81.553 Y82.243 E46.58298
G1 X83.253 Y82.562 E46.70000
G1 X83.724 Y82.671 E46.73274
G1 X83.725 Y101.728 E48.02203
G1 X84.162 Y101.728 E48.05163
G1 X81.492 Y104.398 E48.30708
G1 X81.492 Y116.173 E49.10370
G1 X77.000 Y117.667 E49.42394
G1 X72.508 Y116.173 E49.74422
G1 X72.508 Y104.398 E50.54083
G1 X69.838 Y101.728 E50.79629
G1 X70.276 Y101.728 E50.82590
G1 X70.274 Y82.672 E52.11516
G1 X70.747 Y82.562 E52.14803
G1 X72.447 Y82.243 E52.26506
G1 X73.163 Y82.132 E52.31409
G1 X74.828 Y81.929 E52.42753
G1 X74.833 Y81.381 F7800.000
G1 F1080
G1 X76.538 Y81.247 E52.54325
G1 X77.002 Y81.228 E52.57465
G1 X77.461 Y81.247 E52.60570
G1 X79.167 Y81.381 E52.72151
G1 X80.911 Y81.594 E52.84039
G1 X81.645 Y81.708 E52.89059
G1 X83.365 Y82.031 E53.00898
G1 X84.267 Y82.240 E53.07166
G1 X84.267 Y101.186 E54.35340
G1 X84.535 Y101.186 E54.37150
G1 X84.535 Y102.123 E54.43490
G1 X82.034 Y104.623 E54.67410
G1 X82.034 Y116.565 E55.48198
G1 X77.000 Y118.239 E55.84089
