; generated by Slic3r 1.34.1-prusa3d-win64 on 2017-08-26 at 08:27:01

; external perimeters extrusion width = 0.40mm
; perimeters extrusion width = 0.48mm
; infill extrusion width = 0.48mm
; solid infill extrusion width = 0.48mm
; top infill extrusion width = 0.48mm

M107
M190 S60 ; set bed temperature and wait for it to be reached
M104 S240 ; set temperature
G1 Z5; lift nozzle
G28 Y0 ; home Y axis
G1 Y25 ; Move away from Y
G28 X0 ; home X axis
G1 X25 ; Move away from X
G28 Z0 ; Home Z axis
G1 Z5; lift nozzle
M109 S240 ; set temperature and wait for it to be reached
G21 ; set units to millimeters
G90 ; use absolute coordinates
M82 ; use absolute distances for extrusion
G92 E0
G1 E-1.00000 F120.00000
G92 E0
G1 Z0.300 F7800.000
G1 X59.947 Y60.583 F7800.000
G1 E1.00000 F120.00000
G1 F1080
G1 X61.212 Y60.393 E1.08545
G1 X138.251 Y60.393 E6.23206
G1 X139.011 Y60.457 E6.28301
G1 X139.755 Y60.647 E6.33431
G1 X140.452 Y60.956 E6.38527
G1 X141.093 Y61.379 E6.43657
G1 X158.796 Y76.547 E7.99396
G1 X159.432 Y77.235 E8.05655
G1 X159.919 Y78.042 E8.11949
G1 X160.229 Y78.926 E8.18209
G1 X160.355 Y79.860 E8.24503
G1 X160.357 Y120.023 E10.92819
G1 X160.295 Y120.746 E10.97667
G1 X160.121 Y121.451 E11.02515
G1 X159.603 Y122.522 E11.10463
G1 X158.828 Y123.425 E11.18412
G1 X140.711 Y138.892 E12.77552
G1 X139.551 Y139.418 E12.86062
G1 X138.286 Y139.607 E12.94607
G1 X61.249 Y139.607 E18.09251
G1 X60.510 Y139.546 E18.14205
G1 X59.323 Y139.182 E18.22504
G1 X58.275 Y138.514 E18.30804
G1 X41.178 Y123.430 E19.83117
G1 X40.358 Y122.462 E19.91592
G1 X39.833 Y121.307 E20.00067
G1 X39.643 Y120.053 E20.08542
G1 X39.643 Y79.982 E22.76239
G1 X39.837 Y78.680 E22.85029
G1 X40.340 Y77.567 E22.93188
G1 X41.117 Y76.625 E23.01347
G1 X58.215 Y61.538 E24.53679
G1 X58.787 Y61.110 E24.58457
G1 X59.892 Y60.608 E24.66566
G1 X60.111 Y61.093 F7800.000
G1 F1080
G1 X61.223 Y60.929 E24.74074
G1 X138.250 Y60.929 E29.88661
G1 X138.925 Y60.986 E29.93184
G1 X139.586 Y61.156 E29.97741
G1 X140.209 Y61.433 E30.02298
G1 X140.777 Y61.811 E30.06855
G1 X158.437 Y76.945 E31.62228
G1 X159.002 Y77.554 E31.67779
G1 X159.434 Y78.270 E31.73364
G1 X159.710 Y79.059 E31.78949
G1 X159.820 Y79.888 E31.84534
G1 X159.821 Y120.017 E34.52618
G1 X159.768 Y120.652 E34.56876
G1 X159.615 Y121.276 E34.61168
G1 X159.155 Y122.229 E34.68241
G1 X158.464 Y123.032 E34.75314
G1 X140.414 Y138.446 E36.33885
G1 X139.390 Y138.907 E36.41387
G1 X138.274 Y139.071 E36.48922
G1 X61.250 Y139.071 E41.63485
G1 X60.600 Y139.018 E41.67842
G1 X59.545 Y138.695 E41.75213
G1 X58.616 Y138.100 E41.82583
G1 X41.534 Y123.030 E43.34760
G1 X40.804 Y122.164 E43.42328
G1 X40.344 Y121.145 E43.49797
G1 X40.179 Y120.039 E43.57266
G1 X40.179 Y79.988 E46.24827
G1 X40.352 Y78.829 E46.32659
G1 X40.800 Y77.842 E46.39897
G1 X41.492 Y77.009 E46.47136
G1 X58.569 Y61.941 E47.99279
G1 X59.088 Y61.553 E48.03604
G1 X60.056 Y61.118 E48.10699
G1 X59.384 Y62.000 F7800.000
G1 F1080
G1 X60.268 Y61.605 E48.17165
G1 X61.230 Y61.464 E48.23661
G1 X138.250 Y61.464 E53.38193
G1 X138.842 Y61.515 E53.42161
G1 X139.421 Y61.666 E53.46159
G1 X140.456 Y62.240 E53.54067
G1 X158.082 Y77.346 E55.09148
G1 X158.577 Y77.880 E55.14011
G1 X158.952 Y78.504 E55.18875
G1 X159.191 Y79.192 E55.23739
G1 X159.285 Y79.919 E55.28633
G1 X159.286 Y120.011 E57.96471
G1 X159.108 Y121.102 E58.03858
G1 X158.706 Y121.937 E58.10047
G1 X158.101 Y122.638 E58.16236
G1 X140.116 Y138.000 E59.74249
G1 X139.228 Y138.396 E59.80746
G1 X138.265 Y138.536 E59.87242
G1 X60.686 Y138.490 E65.05515
G1 X59.765 Y138.207 E65.11950
G1 X58.955 Y137.685 E65.18385
G1 X41.893 Y122.633 E66.70385
G1 X41.250 Y121.867 E66.77066
G1 X40.855 Y120.984 E66.83531
G1 X40.715 Y120.031 E66.89966
G1 X40.714 Y79.989 E69.57466
G1 X40.866 Y78.978 E69.64300
G1 X41.259 Y78.118 E69.70612
G1 X41.861 Y77.396 E69.76893
G1 X59.339 Y62.039 E71.32325
G1 E70.32325 F120.00000
G92 E0
G1 X96.450 Y119.697 F7800.000
G1 E1.00000 F120.00000
G1 F378
G1 X94.227 Y119.697 E1.14851
G1 X94.027 Y117.197 E1.31607
G1 X91.173 Y117.197 E1.50673
G1 X90.973 Y119.697 E1.67429
G1 X89.227 Y119.697 E1.79094
G1 X89.027 Y117.197 E1.95850
G1 X86.173 Y117.197 E2.14916
G1 X85.973 Y119.697 E2.31672
G1 X83.827 Y119.697 E2.46009
G1 X83.627 Y117.197 E2.62766
G1 X78.946 Y117.198 E2.94039
G1 X78.945 Y134.700 E4.10963
G1 X61.555 Y134.700 E5.27142
G1 X61.552 Y117.933 E6.39155
G1 X57.435 Y109.696 E7.00676
G1 X55.077 Y109.696 E7.16433
G1 X51.257 Y116.313 E7.67477
G1 X45.396 Y119.697 E8.12688
G1 X44.826 Y119.697 E8.16495
G1 X54.909 Y105.294 E9.33950
G1 X60.155 Y105.294 E9.68992
G1 X64.452 Y113.894 E10.33223
G1 X64.456 Y130.300 E11.42822
G1 X76.044 Y130.300 E12.20234
G1 X76.046 Y112.798 E13.37157
G1 X93.751 Y112.796 E14.55439
G1 X94.066 Y110.186 E14.73001
G1 X94.198 Y108.863 E14.81882
G1 X94.348 Y107.012 E14.94290
G1 X94.452 Y105.259 E15.06023
G1 X94.513 Y103.695 E15.16476
G1 X94.553 Y101.746 E15.29501
G1 X94.553 Y98.254 E15.52827
G1 X94.520 Y96.496 E15.64573
G1 X94.452 Y94.741 E15.76308
G1 X94.348 Y92.988 E15.88038
G1 X94.208 Y91.238 E15.99767
G1 X94.032 Y89.491 E16.11498
G1 X93.750 Y87.204 E16.26892
G1 X76.046 Y87.202 E17.45170
G1 X76.044 Y69.700 E18.62093
G1 X64.456 Y69.700 E19.39505
G1 X64.452 Y86.106 E20.49104
G1 X60.155 Y94.706 E21.13335
G1 X54.909 Y94.706 E21.48377
G1 X44.826 Y80.303 E22.65832
G1 X45.396 Y80.303 E22.69639
G1 X51.257 Y83.687 E23.14850
G1 X55.077 Y90.304 E23.65894
G1 X57.435 Y90.304 E23.81651
G1 X61.552 Y82.067 E24.43172
G1 X61.555 Y65.300 E25.55185
G1 X78.945 Y65.300 E26.71364
G1 X78.946 Y82.802 E27.88288
G1 X83.627 Y82.803 E28.19561
G1 X83.827 Y80.303 E28.36317
G1 X85.973 Y80.303 E28.50654
G1 X86.173 Y82.803 E28.67411
G1 X89.027 Y82.803 E28.86476
G1 X89.227 Y80.303 E29.03233
G1 X90.973 Y80.303 E29.14897
G1 X91.173 Y82.803 E29.31654
G1 X94.027 Y82.803 E29.50719
G1 X94.227 Y80.303 E29.67475
G1 X96.450 Y80.303 E29.82327
G1 X96.450 Y119.637 E32.45097
G1 X96.100 Y119.503 F7800.000
G1 X95.914 Y119.161 F7800.000
G1 F540
G1 X94.721 Y119.161 E32.53066
G1 X94.521 Y116.661 E32.69823
G1 X90.679 Y116.661 E32.95495
G1 X90.479 Y119.161 E33.12251
G1 X89.721 Y119.161 E33.17309
G1 X89.521 Y116.661 E33.34066
G1 X85.679 Y116.661 E33.59738
G1 X85.479 Y119.161 E33.76494
G1 X84.321 Y119.161 E33.84224
G1 X84.121 Y116.661 E34.00982
G1 X78.410 Y116.662 E34.39137
G1 X78.410 Y134.164 E35.56060
G1 X62.090 Y134.164 E36.65083
G1 X62.088 Y117.806 E37.74363
G1 X57.767 Y109.160 E38.38939
G1 X54.768 Y109.160 E38.58974
G1 X50.865 Y115.921 E39.11125
G1 X46.780 Y118.279 E39.42638
G1 X46.605 Y118.089 E39.44361
G1 X55.188 Y105.829 E40.44339
G1 X59.824 Y105.829 E40.75307
G1 X63.917 Y114.021 E41.36481
G1 X63.921 Y130.836 E42.48813
G1 X76.579 Y130.836 E43.33382
G1 X76.581 Y113.334 E44.50305
G1 X94.226 Y113.332 E45.68182
G1 X94.598 Y110.245 E45.88952
G1 X94.732 Y108.911 E45.97904
G1 X94.882 Y107.049 E46.10384
G1 X94.987 Y105.285 E46.22192
G1 X95.048 Y103.711 E46.32714
G1 X95.089 Y101.751 E46.45809
G1 X95.089 Y98.249 E46.69204
G1 X95.056 Y96.481 E46.81020
G1 X94.987 Y94.715 E46.92829
G1 X94.882 Y92.951 E47.04631
G1 X94.741 Y91.190 E47.16433
G1 X94.564 Y89.432 E47.28241
G1 X94.224 Y86.668 E47.46839
G1 X76.581 Y86.666 E48.64704
G1 X76.579 Y69.164 E49.81627
G1 X63.921 Y69.164 E50.66195
G1 X63.917 Y85.979 E51.78527
G1 X59.824 Y94.171 E52.39702
G1 X55.188 Y94.171 E52.70669
G1 X46.605 Y81.911 E53.70647
G1 X46.780 Y81.721 E53.72370
G1 X50.865 Y84.079 E54.03883
G1 X54.768 Y90.840 E54.56034
G1 X57.767 Y90.840 E54.76069
G1 X62.088 Y82.194 E55.40646
G1 X62.090 Y65.836 E56.49926
G1 X78.410 Y65.836 E57.58948
G1 X78.410 Y83.338 E58.75871
G1 X84.121 Y83.339 E59.14025
G1 X84.321 Y80.839 E59.30783
G1 X85.479 Y80.839 E59.38513
G1 X85.679 Y83.339 E59.55269
G1 X89.521 Y83.339 E59.80942
G1 X89.721 Y80.839 E59.97698
G1 X90.479 Y80.839 E60.02756
G1 X90.679 Y83.339 E60.19512
G1 X94.521 Y83.339 E60.45185
G1 X94.721 Y80.839 E60.61941
G1 X95.914 Y80.839 E60.69910
G1 X95.914 Y119.101 E63.25524
G1 E62.25524 F120.00000
G92 E0
G1 X95.077 Y89.212 F7800.000
G1 E1.00000 F120.00000
G1 F540
G1 X94.698 Y86.133 E1.20726
G1 X77.117 Y86.131 E2.38177
G1 X77.115 Y68.629 E3.55100
G1 X63.385 Y68.629 E4.46824
G1 X63.381 Y85.853 E5.61889
G1 X59.492 Y93.635 E6.20008
G1 X55.467 Y93.635 E6.46900
G1 X48.430 Y83.582 E7.28878
G1 X48.604 Y83.392 E7.30601
G1 X50.473 Y84.471 E7.45017
G1 X54.458 Y91.376 E7.98275
G1 X58.098 Y91.376 E8.22588
G1 X62.624 Y82.320 E8.90220
G1 X62.626 Y66.371 E9.96766
G1 X77.874 Y66.371 E10.98633
G1 X77.875 Y83.873 E12.15555
G1 X84.616 Y83.875 E12.60590
G1 X84.752 Y82.178 E12.71964
G1 X85.048 Y82.178 E12.73946
G1 X85.184 Y83.875 E12.85318
G1 X95.016 Y83.875 E13.51000
G1 X95.070 Y83.196 E13.55548
G1 X95.379 Y83.208 E13.57611
G1 X95.379 Y89.194 E13.97596
G1 X95.137 Y89.208 E13.99214
G1 E12.99214 F120.00000
G92 E0
G1 X95.077 Y110.751 F7800.000
G1 E1.00000 F120.00000
G1 F540
G1 X95.379 Y110.769 E1.02022
G1 X95.379 Y116.792 E1.42254
G1 X95.070 Y116.804 E1.44317
G1 X95.016 Y116.125 E1.48865
G1 X85.184 Y116.125 E2.14547
G1 X85.048 Y117.822 E2.25919
G1 X84.752 Y117.822 E2.27901
G1 X84.616 Y116.125 E2.39275
G1 X77.874 Y116.127 E2.84311
G1 X77.874 Y133.629 E4.01233
G1 X62.626 Y133.629 E5.03100
G1 X62.624 Y117.680 E6.09647
G1 X58.098 Y108.624 E6.77279
G1 X54.458 Y108.624 E7.01592
G1 X50.473 Y115.529 E7.54850
G1 X48.604 Y116.608 E7.69266
G1 X48.430 Y116.418 E7.70989
G1 X55.467 Y106.365 E8.52966
G1 X59.492 Y106.365 E8.79858
G1 X63.381 Y114.147 E9.37977
G1 X63.385 Y131.371 E10.53043
G1 X77.115 Y131.371 E11.44766
G1 X77.117 Y113.869 E12.61690
G1 X94.701 Y113.867 E13.79162
G1 X95.069 Y110.811 E13.99727
G1 X95.246 Y110.493 F7800.000
G1 F360
G1 X95.296 Y109.476 E14.08610
G1 F360
G1 X95.341 Y108.493 E14.16261
G1 F360
G1 X95.379 Y107.557 E14.22658
G1 F360
G1 X95.415 Y106.492 E14.28923
G1 F360
G1 X95.450 Y105.310 E14.34796
G1 F360
G1 X95.481 Y103.726 E14.41280
G1 F360
G1 X95.501 Y101.754 E14.47828
G1 X95.501 Y98.247 E14.59476
G1 X95.468 Y95.580 E14.68332
G1 F360
G1 X95.433 Y94.099 E14.74391
G1 F360
G1 X95.398 Y92.913 E14.80287
G1 F360
G1 X95.350 Y91.731 E14.87378
G1 F360
G1 X95.299 Y90.579 E14.95650
G1 F360
G1 X95.243 Y89.470 E15.04812
G1 E14.04812 F120.00000
G92 E0
G1 X95.077 Y86.745 F7800.000
G1 E1.00000 F120.00000
G1 F360
G1 X95.023 Y85.865 E1.00597
G1 X95.165 Y85.176 F7800.000
G1 F1080
G1 X94.319 Y84.330 E1.08619
G1 X93.558 Y84.330 E1.13717
G1 X94.660 Y85.431 E1.24162
G1 X94.482 Y85.442 E1.25358
G1 X94.496 Y85.678 E1.26939
G1 X94.146 Y85.678 E1.29289
G1 X92.798 Y84.330 E1.42069
G1 X92.038 Y84.330 E1.47167
G1 X93.385 Y85.677 E1.59946
G1 X92.625 Y85.677 E1.65045
G1 X91.277 Y84.330 E1.77822
G1 X90.517 Y84.330 E1.82921
G1 X91.864 Y85.677 E1.95697
G1 X91.104 Y85.677 E2.00796
G1 X89.757 Y84.330 E2.13571
G1 X88.997 Y84.330 E2.18669
G1 X90.344 Y85.677 E2.31443
G1 X89.583 Y85.677 E2.36542
G1 X88.236 Y84.330 E2.49315
G1 X87.476 Y84.330 E2.54413
G1 X88.823 Y85.677 E2.67185
G1 X88.062 Y85.677 E2.72284
G1 X86.716 Y84.330 E2.85055
G1 X85.955 Y84.330 E2.90153
G1 X87.302 Y85.677 E3.02922
G1 X86.542 Y85.677 E3.08021
G1 X85.195 Y84.330 E3.20790
G1 X84.435 Y84.330 E3.25889
G1 X85.781 Y85.677 E3.38657
G1 X85.021 Y85.677 E3.43756
G1 X83.674 Y84.330 E3.56526
G1 X82.914 Y84.330 E3.61626
G1 X84.260 Y85.676 E3.74397
G1 X83.500 Y85.676 E3.79496
G1 X82.153 Y84.330 E3.92268
G1 X81.393 Y84.329 E3.97368
G1 X82.739 Y85.676 E4.10141
G1 X81.979 Y85.676 E4.15240
G1 X80.632 Y84.329 E4.28014
G1 X79.871 Y84.329 E4.33113
G1 X81.219 Y85.676 E4.45889
G1 X80.458 Y85.676 E4.50988
G1 X79.111 Y84.329 E4.63764
G1 X78.350 Y84.329 E4.68864
G1 X79.698 Y85.676 E4.81641
G1 X78.937 Y85.676 E4.86740
G1 X77.858 Y84.596 E4.96980
G1 X77.572 Y84.596 E4.98896
G1 X77.572 Y85.071 E5.02078
G1 X78.418 Y85.917 E5.10102
G1 E4.10102 F120.00000
G92 E0
G1 X77.496 Y84.141 F7800.000
G1 E1.00000 F120.00000
G1 F360
G1 X77.495 Y68.361 E1.31118
G1 X77.660 Y67.710 F7800.000
G1 F1080
G1 X76.777 Y66.826 E1.39767
G1 X75.991 Y66.826 E1.45204
G1 X77.071 Y67.906 E1.55773
G1 X76.928 Y67.906 E1.56761
G1 X76.928 Y68.174 E1.58615
G1 X76.553 Y68.174 E1.61210
G1 X75.206 Y66.826 E1.74401
G1 X74.421 Y66.826 E1.79838
G1 X75.768 Y68.174 E1.93030
G1 X74.983 Y68.174 E1.98467
G1 X73.636 Y66.826 E2.11658
G1 X72.851 Y66.826 E2.17095
G1 X74.198 Y68.174 E2.30286
G1 X73.413 Y68.174 E2.35723
G1 X72.066 Y66.826 E2.48915
G1 X71.280 Y66.826 E2.54352
G1 X72.627 Y68.174 E2.67543
G1 X71.842 Y68.174 E2.72980
G1 X70.495 Y66.826 E2.86171
G1 X69.710 Y66.826 E2.91608
G1 X71.057 Y68.174 E3.04799
G1 X70.272 Y68.174 E3.10236
G1 X68.925 Y66.826 E3.23428
G1 X68.140 Y66.826 E3.28865
G1 X69.487 Y68.174 E3.42056
G1 X68.702 Y68.174 E3.47493
G1 X67.355 Y66.826 E3.60684
G1 X66.569 Y66.826 E3.66121
G1 X67.916 Y68.174 E3.79313
G1 X67.131 Y68.174 E3.84750
G1 X65.784 Y66.826 E3.97941
G1 X64.999 Y66.826 E4.03378
G1 X66.346 Y68.174 E4.16569
G1 X65.561 Y68.174 E4.22006
G1 X64.214 Y66.826 E4.35198
G1 X63.429 Y66.826 E4.40635
G1 X64.776 Y68.174 E4.53826
G1 X63.991 Y68.174 E4.59263
G1 X62.840 Y67.023 E4.70532
G1 X63.005 Y68.361 F7800.000
G1 F360
G1 X63.003 Y82.383 E4.98455
G1 X62.887 Y83.361 E5.00416
G1 X63.167 Y84.700 F7800.000
G1 F1080
G1 X62.351 Y83.884 E5.08158
G1 X62.098 Y84.391 E5.11960
G1 X62.926 Y85.219 E5.19819
G1 X62.926 Y85.745 E5.23346
G1 X62.848 Y85.902 E5.24518
G1 X61.844 Y84.898 E5.34039
G1 X61.591 Y85.405 E5.37841
G1 X62.595 Y86.409 E5.47362
G1 X62.341 Y86.916 E5.51164
G1 X61.337 Y85.912 E5.60685
G1 X61.084 Y86.419 E5.64487
G1 X62.088 Y87.423 E5.74008
G1 X61.834 Y87.930 E5.77810
G1 X60.830 Y86.926 E5.87332
G1 X60.577 Y87.433 E5.91134
G1 X61.581 Y88.437 E6.00656
G1 X61.328 Y88.944 E6.04458
G1 X60.324 Y87.940 E6.13981
G1 X60.070 Y88.447 E6.17782
G1 X61.074 Y89.451 E6.27305
G1 X60.821 Y89.958 E6.31107
G1 X59.817 Y88.954 E6.40630
G1 X59.563 Y89.461 E6.44432
G1 X60.567 Y90.465 E6.53955
G1 X60.314 Y90.972 E6.57757
G1 X59.310 Y89.968 E6.67281
G1 X59.057 Y90.475 E6.71083
G1 X60.061 Y91.480 E6.80607
G1 X59.807 Y91.987 E6.84409
G1 X58.803 Y90.982 E6.93933
G1 X58.550 Y91.490 E6.97735
G1 X59.554 Y92.494 E7.07260
G1 X59.300 Y93.001 E7.11062
G1 X58.131 Y91.831 E7.22158
G1 X57.370 Y91.831 E7.27258
G1 X58.719 Y93.180 E7.40052
G1 X57.958 Y93.180 E7.45152
G1 X56.610 Y91.831 E7.57945
G1 X55.849 Y91.831 E7.63046
G1 X57.198 Y93.180 E7.75839
G1 X56.437 Y93.180 E7.80939
G1 X54.848 Y91.590 E7.96018
G1 X53.427 Y90.195 F7800.000
G1 F360
G1 X52.748 Y89.128 E7.96920
G1 F360
G1 X52.069 Y88.062 E7.99384
G1 F360
G1 X51.390 Y86.996 E8.03410
G1 F360
G1 X50.711 Y85.929 E8.08999
G1 F360
G1 X50.031 Y84.863 E8.16151
G1 F360
G1 X49.692 Y84.330 E8.20508
G1 E7.20508 F120.00000
G92 E0
G1 X53.427 Y109.805 F7800.000
G1 E1.00000 F120.00000
G1 F360
G1 X52.748 Y110.872 E1.00901
G1 F360
G1 X52.069 Y111.938 E1.03365
G1 F360
G1 X51.390 Y113.004 E1.07392
G1 F360
G1 X50.711 Y114.071 E1.12981
G1 F360
G1 X50.031 Y115.137 E1.20132
G1 F360
G1 X49.692 Y115.670 E1.24489
G1 E0.24489 F120.00000
G92 E0
G1 X54.698 Y107.838 F7800.000
G1 E1.00000 F120.00000
G1 F1080
G1 X55.029 Y108.169 E1.03288
G1 X55.824 Y108.169 E1.08865
G1 X55.198 Y107.543 E1.15076
G1 X55.526 Y107.075 E1.19080
G1 X56.620 Y108.169 E1.29930
G1 X57.415 Y108.169 E1.35506
G1 X56.066 Y106.820 E1.48883
G1 X56.861 Y106.820 E1.54460
G1 X62.097 Y112.056 E2.06385
G1 X61.302 Y110.466 F7800.000
G1 F1080
G1 X57.656 Y106.820 E2.42546
G1 X58.452 Y106.820 E2.48123
G1 X60.508 Y108.877 E2.68520
G1 X58.804 Y109.558 F7800.000
G1 F1080
G1 X62.891 Y113.645 E3.09056
G1 X63.167 Y114.717 F7800.000
G1 F1080
G1 X59.598 Y111.148 E3.44451
G1 X60.393 Y112.738 F7800.000
G1 F1080
G1 X63.167 Y115.512 E3.71968
G1 X63.168 Y116.307 F7800.000
G1 F1080
G1 X61.187 Y114.327 E3.91606
G1 E2.91606 F120.00000
G92 E0
G1 X62.887 Y116.639 F7800.000
G1 E1.00000 F120.00000
G1 F360
G1 X63.003 Y117.617 E1.01961
G1 X63.005 Y131.639 E1.29884
G1 X62.840 Y132.290 F7800.000
G1 F1080
G1 X63.723 Y133.174 E1.38533
G1 X64.508 Y133.174 E1.43970
G1 X63.429 Y132.094 E1.54540
G1 X63.573 Y132.094 E1.55535
G1 X63.573 Y131.826 E1.57389
G1 X63.946 Y131.826 E1.59977
G1 X65.293 Y133.174 E1.73168
G1 X66.079 Y133.174 E1.78605
G1 X64.732 Y131.826 E1.91796
G1 X65.517 Y131.826 E1.97233
G1 X66.864 Y133.174 E2.10424
G1 X67.649 Y133.174 E2.15861
G1 X66.302 Y131.826 E2.29052
